(.../Devel/Eagle/pcb-gcode/pcb-gcode.ulp)
(Copyright 2005 - 2012 by John Johnson)
(See readme.txt for licensing terms.)
(This file generated from the board:)
(.../PNC-3000/pnc3000-interface.brd)
(Current profile is .../Eagle/pcb-gcode/profiles/emc.pp  )
(This file generated 30-06-2018 17:00)
(Settings from pcb-machine.h)
(spindle on time = 1.0000)
(spindle speed = 20000.0000)
(tool change at 0.0000 0.0000 30.0000 )
(feed rate xy = F0.00  )
(feed rate z  = F100.00 )
(Z Axis Settings)
(  High     Up        Down     Drill)
(10.0000 	1.0000 	-0.1000 	-2.2000 )
(Settings from pcb-defaults.h)
(isolate min = 0.0200)
(isolate max = 0.3000)
(isolate step = 0.1400)
(Generated bottom outlines, bottom drill, )
(Unit of measure: mm)
( Tool|       Size       |  Min Sub |  Max Sub |   Count )
( T01 | 0.600mm 0.0236in | 0.0236in | 0.0236in |      24 )
( T02 | 0.800mm 0.0315in | 0.0315in | 0.0320in |     168 )
( T03 | 1.000mm 0.0394in | 0.0394in | 0.0400in |      18 )
( T06 | 3.000mm 0.1181in | 0.1181in | 0.1260in |       2 )
(Metric Mode)
G21
(Absolute Coordinates)
G90
S20000
G00 Z10.0000 
G00 X0.0000 Y0.0000 
M03
G04 P1.000000
M05
G00 Z30.0000 
M06 T01 (0.6000 )
G01 Z0.0000 F100.00 
M06 
G00 Z1.0000 
M03
G04 P1.000000
G82 X-45.7200 Y9.5250 Z-2.2000 F100.00 R1.0000 P0.500000
G82 X-45.7200 Y9.5250 
G82 X-45.7200 Y13.0175 
G82 X-45.7200 Y13.0175 
G82 X-63.5000 Y10.7950 
G82 X-63.5000 Y10.7950 
G82 X-66.0400 Y9.5250 
G82 X-66.0400 Y9.5250 
G82 X-82.5500 Y7.6200 
G82 X-82.5500 Y7.6200 
G82 X-82.5500 Y27.9400 
G82 X-82.5500 Y27.9400 
G82 X-82.5500 Y30.4800 
G82 X-82.5500 Y30.4800 
G82 X-69.8500 Y27.3050 
G82 X-69.8500 Y27.3050 
G82 X-63.5000 Y35.5600 
G82 X-63.5000 Y35.5600 
G82 X-66.0400 Y41.9100 
G82 X-66.0400 Y41.9100 
G82 X-69.8500 Y64.1350 
G82 X-69.8500 Y64.1350 
G82 X-82.5500 Y61.5950 
G82 X-82.5500 Y61.5950 
M05
G00 Z30.0000 
G00 X0.0000 Y0.0000 
M06 T02 (0.8000 )
G01 Z0.0000 F100.00 
M06 
G00 Z1.0000 
M03
G04 P1.000000
G82 X-26.6700 Y15.8750 Z-2.2000 F100.00 R1.0000 P0.500000
G82 X-26.6700 Y18.4150 
G82 X-26.6700 Y20.9550 
G82 X-26.6700 Y23.4950 
G82 X-26.6700 Y26.0350 
G82 X-26.6700 Y28.5750 
G82 X-26.6700 Y31.1150 
G82 X-26.6700 Y33.6550 
G82 X-26.6700 Y36.1950 
G82 X-26.6700 Y38.7350 
G82 X-26.6700 Y41.2750 
G82 X-26.6700 Y43.8150 
G82 X-26.6700 Y46.3550 
G82 X-26.6700 Y48.8950 
G82 X-26.6700 Y51.4350 
G82 X-26.6700 Y53.9750 
G82 X-26.6700 Y56.5150 
G82 X-26.6700 Y59.0550 
G82 X-26.6700 Y61.5950 
G82 X-26.6700 Y64.1350 
G82 X-30.4800 Y63.5000 
G82 X-30.4800 Y60.9600 
G82 X-30.4800 Y58.4200 
G82 X-30.4800 Y55.8800 
G82 X-30.4800 Y53.3400 
G82 X-30.4800 Y50.8000 
G82 X-30.4800 Y48.2600 
G82 X-30.4800 Y45.7200 
G82 X-30.4800 Y43.1800 
G82 X-30.4800 Y40.6400 
G82 X-30.4800 Y38.1000 
G82 X-30.4800 Y35.5600 
G82 X-30.4800 Y33.0200 
G82 X-30.4800 Y30.4800 
G82 X-30.4800 Y27.9400 
G82 X-30.4800 Y25.4000 
G82 X-30.4800 Y22.8600 
G82 X-30.4800 Y20.3200 
G82 X-30.4800 Y17.7800 
G82 X-30.4800 Y15.2400 
G82 X-41.9100 Y15.8750 
G82 X-41.9100 Y18.4150 
G82 X-41.9100 Y20.9550 
G82 X-41.9100 Y23.4950 
G82 X-41.9100 Y26.0350 
G82 X-41.9100 Y28.5750 
G82 X-41.9100 Y31.1150 
G82 X-41.9100 Y33.6550 
G82 X-41.9100 Y36.1950 
G82 X-41.9100 Y38.7350 
G82 X-41.9100 Y41.2750 
G82 X-41.9100 Y43.8150 
G82 X-41.9100 Y46.3550 
G82 X-41.9100 Y48.8950 
G82 X-41.9100 Y51.4350 
G82 X-41.9100 Y53.9750 
G82 X-41.9100 Y56.5150 
G82 X-41.9100 Y59.0550 
G82 X-41.9100 Y61.5950 
G82 X-41.9100 Y64.1350 
G82 X-45.7200 Y63.5000 
G82 X-45.7200 Y60.9600 
G82 X-45.7200 Y58.4200 
G82 X-45.7200 Y55.8800 
G82 X-45.7200 Y53.3400 
G82 X-45.7200 Y50.8000 
G82 X-45.7200 Y48.2600 
G82 X-45.7200 Y45.7200 
G82 X-45.7200 Y43.1800 
G82 X-45.7200 Y40.6400 
G82 X-45.7200 Y38.1000 
G82 X-45.7200 Y35.5600 
G82 X-45.7200 Y33.0200 
G82 X-45.7200 Y30.4800 
G82 X-45.7200 Y27.9400 
G82 X-45.7200 Y25.4000 
G82 X-45.7200 Y22.8600 
G82 X-45.7200 Y20.3200 
G82 X-45.7200 Y17.7800 
G82 X-45.7200 Y15.2400 
G82 X-53.3400 Y15.2400 
G82 X-53.3400 Y12.7000 
G82 X-53.3400 Y10.1600 
G82 X-53.3400 Y7.6200 
G82 X-60.9600 Y7.6200 
G82 X-60.9600 Y10.1600 
G82 X-60.9600 Y12.7000 
G82 X-60.9600 Y15.2400 
G82 X-60.9600 Y17.7800 
G82 X-60.9600 Y20.3200 
G82 X-60.9600 Y22.8600 
G82 X-60.9600 Y25.4000 
G82 X-53.3400 Y25.4000 
G82 X-53.3400 Y22.8600 
G82 X-53.3400 Y20.3200 
G82 X-53.3400 Y17.7800 
G82 X-72.3900 Y17.7800 
G82 X-72.3900 Y20.3200 
G82 X-72.3900 Y22.8600 
G82 X-72.3900 Y25.4000 
G82 X-73.0250 Y30.4800 
G82 X-73.0250 Y35.5600 
G82 X-72.3900 Y44.4500 
G82 X-72.3900 Y46.9900 
G82 X-72.3900 Y49.5300 
G82 X-72.3900 Y52.0700 
G82 X-72.3900 Y54.6100 
G82 X-72.3900 Y57.1500 
G82 X-72.3900 Y59.6900 
G82 X-72.3900 Y62.2300 
G82 X-80.0100 Y62.2300 
G82 X-80.0100 Y59.6900 
G82 X-80.0100 Y57.1500 
G82 X-80.0100 Y54.6100 
G82 X-80.0100 Y52.0700 
G82 X-80.0100 Y49.5300 
G82 X-80.0100 Y46.9900 
G82 X-80.0100 Y44.4500 
G82 X-92.7100 Y45.0850 
G82 X-97.1550 Y45.0850 
G82 X-97.1550 Y55.2450 
G82 X-97.1550 Y57.7850 
G82 X-99.6950 Y61.5950 
G82 X-99.6950 Y65.4050 
G82 X-97.1550 Y68.5800 
G82 X-92.0750 Y68.5800 
G82 X-89.5350 Y65.4050 
G82 X-89.5350 Y61.5950 
G82 X-92.7100 Y55.2450 
G82 X-102.2350 Y57.7850 
G82 X-93.3450 Y73.0250 
G82 X-92.0750 Y74.9300 
G82 X-90.8050 Y73.0250 
G82 X-83.8200 Y74.2950 
G82 X-81.9150 Y73.0250 
G82 X-83.8200 Y71.7550 
G82 X-68.5800 Y71.7550 
G82 X-66.0400 Y71.7550 
G82 X-61.5950 Y71.7550 
G82 X-60.9600 Y62.2300 
G82 X-60.9600 Y59.6900 
G82 X-60.9600 Y57.1500 
G82 X-60.9600 Y54.6100 
G82 X-60.9600 Y52.0700 
G82 X-60.9600 Y49.5300 
G82 X-60.9600 Y46.9900 
G82 X-60.9600 Y44.4500 
G82 X-53.3400 Y44.4500 
G82 X-53.3400 Y46.9900 
G82 X-53.3400 Y49.5300 
G82 X-53.3400 Y52.0700 
G82 X-53.3400 Y54.6100 
G82 X-53.3400 Y57.1500 
G82 X-53.3400 Y59.6900 
G82 X-53.3400 Y62.2300 
G82 X-51.4350 Y71.7550 
G82 X-80.0100 Y25.4000 
G82 X-80.0100 Y22.8600 
G82 X-80.0100 Y20.3200 
G82 X-80.0100 Y17.7800 
G82 X-80.0100 Y15.2400 
G82 X-80.0100 Y12.7000 
G82 X-80.0100 Y10.1600 
G82 X-80.0100 Y7.6200 
G82 X-72.3900 Y7.6200 
G82 X-72.3900 Y10.1600 
G82 X-72.3900 Y12.7000 
G82 X-72.3900 Y15.2400 
M05
G00 Z30.0000 
G00 X0.0000 Y0.0000 
M06 T03 (1.0000 )
G01 Z0.0000 F100.00 
M06 
G00 Z1.0000 
M03
G04 P1.000000
G82 X-65.4050 Y46.9900 Z-2.2000 F100.00 R1.0000 P0.500000
G82 X-67.9450 Y46.9900 
G82 X-67.3100 Y55.8800 
G82 X-67.3100 Y58.4200 
G82 X-92.7100 Y41.9100 
G82 X-92.7100 Y39.3700 
G82 X-92.7100 Y36.8300 
G82 X-92.7100 Y34.2900 
G82 X-92.7100 Y31.7500 
G82 X-92.7100 Y29.2100 
G82 X-95.2500 Y29.2100 
G82 X-95.2500 Y31.7500 
G82 X-95.2500 Y34.2900 
G82 X-95.2500 Y36.8300 
G82 X-95.2500 Y39.3700 
G82 X-95.2500 Y41.9100 
G82 X-101.6000 Y47.6250 
G82 X-101.6000 Y50.1650 
M05
G00 Z30.0000 
G00 X0.0000 Y0.0000 
M06 T06 (3.0000 )
G01 Z0.0000 F100.00 
M06 
G00 Z1.0000 
M03
G04 P1.000000
G82 X-5.7150 Y80.6450 Z-2.2000 F100.00 R1.0000 P0.500000
G82 X-100.9650 Y80.6450 
T01 
G00 Z10.0000 
M05
M02
