(.../Devel/Eagle/pcb-gcode/pcb-gcode.ulp)
(Copyright 2005 - 2012 by John Johnson)
(See readme.txt for licensing terms.)
(This file generated from the board:)
(.../PNC-3000/pnc3000-interface.brd)
(Current profile is .../Eagle/pcb-gcode/profiles/emc.pp  )
(This file generated 30-06-2018 17:00)
(Settings from pcb-machine.h)
(spindle on time = 1.0000)
(  Tool Size)
(0.1000 )
(spindle speed = 30000.0000)
(tool change at 0.0000 0.0000 30.0000 )
(feed rate xy = F300.00 )
(feed rate z  = F254.00 )
(Z Axis Settings)
(  High     Up        Down     Drill)
(10.0000 	1.0000 	-0.1000 	-2.2000 )
(Settings from pcb-defaults.h)
(isolate min = 0.0200)
(isolate max = 0.3000)
(isolate step = 0.1400)
(Generated bottom outlines, bottom drill, )
(Unit of measure: mm)
(Metric Mode)
G21
(Absolute Coordinates)
G90
S30000
G00 Z10.0000 
G00 X0.0000 Y0.0000 
M03
G04 P1.000000
G00 Z1.0000 
G00 X-19.9388 Y7.9625 
G01 Z-0.1000 F254.00 
G01 X-20.0275 Y7.8738 F300.00 
G01 X-25.7425 Y2.1588 
G01 X-25.8511 Y2.0961 
G01 X-25.9723 Y2.0636 
G01 X-83.8827 Y2.0636 
G01 X-84.0039 Y2.0961 
G01 X-84.1125 Y2.1588 
G01 X-84.2012 Y2.2475 
G01 X-86.1062 Y4.1525 
G01 X-86.1689 Y4.2611 
G01 X-86.2014 Y4.3823 
G01 X-86.2014 Y14.4077 
G01 X-99.4412 Y27.6475 
G01 X-99.5039 Y27.7561 
G01 X-99.5364 Y27.8773 
G01 X-99.5364 Y40.4427 
G01 X-104.5212 Y45.4275 
G01 X-104.5839 Y45.5361 
G01 X-104.6164 Y45.6573 
G01 X-104.6164 Y49.5927 
G01 X-104.5839 Y49.7139 
G01 X-104.5212 Y49.8225 
G01 X-103.7975 Y50.5462 
G01 X-103.6889 Y50.6089 
G01 X-103.5677 Y50.6414 
G01 X-103.0443 Y50.6414 
G01 X-103.0083 Y50.6954 
G01 X-102.8924 Y50.8113 
G01 X-102.7561 Y50.9023 
G01 X-102.6047 Y50.9650 
G01 X-102.4439 Y50.9970 
G01 X-102.0764 Y50.9970 
G01 X-102.0764 Y57.0546 
G01 X-102.5375 Y57.0546 
G01 X-102.9654 Y57.4825 
G01 X-102.9654 Y58.0875 
G01 X-102.5375 Y58.5154 
G01 X-102.0764 Y58.5154 
G01 X-102.0764 Y59.1177 
G01 X-102.0439 Y59.2389 
G01 X-101.9812 Y59.3475 
G01 X-100.2308 Y61.0979 
G01 X-100.4254 Y61.2925 
G01 X-100.4254 Y61.8975 
G01 X-100.1714 Y62.1515 
G01 X-100.1714 Y64.8485 
G01 X-100.4254 Y65.1025 
G01 X-100.4254 Y65.7075 
G01 X-99.9975 Y66.1354 
G01 X-99.3925 Y66.1354 
G01 X-98.9646 Y65.7075 
G01 X-98.9646 Y65.1025 
G01 X-99.2186 Y64.8485 
G01 X-99.2186 Y62.1515 
G01 X-98.9646 Y61.8975 
G01 X-98.9646 Y61.2925 
G01 X-99.2219 Y61.0351 
G01 X-99.2186 Y61.0227 
G01 X-99.2186 Y60.8973 
G01 X-99.2511 Y60.7761 
G01 X-99.3138 Y60.6675 
G01 X-101.1236 Y58.8577 
G01 X-101.1236 Y50.9970 
G01 X-100.7561 Y50.9970 
G01 X-100.5953 Y50.9650 
G01 X-100.4439 Y50.9023 
G01 X-100.3076 Y50.8113 
G01 X-100.1917 Y50.6954 
G01 X-100.1007 Y50.5591 
G01 X-100.0380 Y50.4077 
G01 X-100.0060 Y50.2469 
G01 X-100.0060 Y50.0831 
G01 X-100.0380 Y49.9223 
G01 X-100.1007 Y49.7709 
G01 X-100.1917 Y49.6346 
G01 X-100.3076 Y49.5187 
G01 X-100.4439 Y49.4277 
G01 X-100.5953 Y49.3650 
G01 X-100.7561 Y49.3330 
G01 X-102.4439 Y49.3330 
G01 X-102.6047 Y49.3650 
G01 X-102.7561 Y49.4277 
G01 X-102.8924 Y49.5187 
G01 X-103.0083 Y49.6346 
G01 X-103.0443 Y49.6886 
G01 X-103.3077 Y49.6886 
G01 X-103.6636 Y49.3327 
G01 X-103.6636 Y45.9173 
G01 X-98.7675 Y41.0212 
G01 X-98.6788 Y40.9325 
G01 X-98.6161 Y40.8239 
G01 X-98.5836 Y40.7027 
G01 X-98.5836 Y28.1373 
G01 X-85.4325 Y14.9862 
G01 X-85.3438 Y14.8975 
G01 X-85.2811 Y14.7889 
G01 X-85.2486 Y14.6677 
G01 X-85.2486 Y4.6423 
G01 X-83.6227 Y3.0164 
G01 X-26.2323 Y3.0164 
G01 X-20.7964 Y8.4523 
G01 X-20.7964 Y48.6977 
G01 X-23.0573 Y50.9586 
G01 X-25.4531 Y50.9586 
G01 X-25.5440 Y50.8677 
G01 X-25.6636 Y50.7877 
G01 X-25.7965 Y50.7327 
G01 X-25.9377 Y50.7046 
G01 X-27.2668 Y50.7046 
G01 X-29.0529 Y50.1092 
G01 X-29.1907 Y50.0919 
G01 X-29.3292 Y50.1017 
G01 X-29.4632 Y50.1384 
G01 X-29.4836 Y50.1486 
G01 X-29.6065 Y50.0977 
G01 X-29.7477 Y50.0696 
G01 X-31.2123 Y50.0696 
G01 X-31.3534 Y50.0977 
G01 X-31.4864 Y50.1527 
G01 X-31.6060 Y50.2327 
G01 X-31.6969 Y50.3236 
G01 X-33.4577 Y50.3236 
G01 X-35.0836 Y48.6977 
G01 X-35.0836 Y38.0373 
G01 X-35.1161 Y37.9161 
G01 X-35.1788 Y37.8075 
G01 X-38.3538 Y34.6325 
G01 X-38.4425 Y34.5438 
G01 X-38.5511 Y34.4811 
G01 X-38.6723 Y34.4486 
G01 X-42.4863 Y34.4486 
G01 X-44.9656 Y33.8288 
G01 X-45.0223 Y33.8136 
G01 X-45.0264 Y33.8136 
G01 X-45.0303 Y33.8126 
G01 X-45.0890 Y33.8136 
G01 X-54.4127 Y33.8136 
G01 X-58.0388 Y30.1875 
G01 X-58.1275 Y30.0988 
G01 X-58.2361 Y30.0361 
G01 X-58.3573 Y30.0036 
G01 X-64.1977 Y30.0036 
G01 X-64.3189 Y30.0361 
G01 X-64.4275 Y30.0988 
G01 X-66.3325 Y32.0038 
G01 X-66.4212 Y32.0925 
G01 X-66.4839 Y32.2011 
G01 X-66.5164 Y32.3223 
G01 X-66.5164 Y35.1852 
G01 X-72.3669 Y35.1852 
G01 X-72.7225 Y34.8296 
G01 X-73.3275 Y34.8296 
G01 X-73.7554 Y35.2575 
G01 X-73.7554 Y35.8625 
G01 X-73.3275 Y36.2904 
G01 X-72.7225 Y36.2904 
G01 X-72.3669 Y35.9348 
G01 X-66.5164 Y35.9348 
G01 X-66.5164 Y41.1360 
G01 X-66.6189 Y41.2046 
G01 X-66.7454 Y41.3311 
G01 X-66.8448 Y41.4798 
G01 X-66.9133 Y41.6451 
G01 X-66.9482 Y41.8205 
G01 X-66.9482 Y41.9995 
G01 X-66.9133 Y42.1749 
G01 X-66.8448 Y42.3402 
G01 X-66.7454 Y42.4889 
G01 X-66.6189 Y42.6154 
G01 X-66.5164 Y42.6840 
G01 X-66.5164 Y42.9827 
G01 X-67.5073 Y43.9736 
G01 X-71.1731 Y43.9736 
G01 X-71.2640 Y43.8827 
G01 X-71.3836 Y43.8027 
G01 X-71.5165 Y43.7477 
G01 X-71.6577 Y43.7196 
G01 X-73.1223 Y43.7196 
G01 X-73.2635 Y43.7477 
G01 X-73.3964 Y43.8027 
G01 X-73.5160 Y43.8827 
G01 X-73.6177 Y43.9844 
G01 X-73.6977 Y44.1040 
G01 X-73.7527 Y44.2369 
G01 X-73.7808 Y44.3781 
G01 X-73.7808 Y44.5219 
G01 X-73.7527 Y44.6630 
G01 X-73.6977 Y44.7960 
G01 X-73.6177 Y44.9156 
G01 X-73.5160 Y45.0173 
G01 X-73.3964 Y45.0973 
G01 X-73.2635 Y45.1523 
G01 X-73.1223 Y45.1804 
G01 X-71.6577 Y45.1804 
G01 X-71.5165 Y45.1523 
G01 X-71.3836 Y45.0973 
G01 X-71.2640 Y45.0173 
G01 X-71.1731 Y44.9264 
G01 X-67.2473 Y44.9264 
G01 X-67.1261 Y44.8939 
G01 X-67.0175 Y44.8312 
G01 X-66.9288 Y44.7425 
G01 X-65.8427 Y43.6564 
G01 X-57.9823 Y43.6564 
G01 X-56.8075 Y44.8312 
G01 X-56.6989 Y44.8939 
G01 X-56.5777 Y44.9264 
G01 X-54.5569 Y44.9264 
G01 X-54.4660 Y45.0173 
G01 X-54.3464 Y45.0973 
G01 X-54.2135 Y45.1523 
G01 X-54.0723 Y45.1804 
G01 X-52.6077 Y45.1804 
G01 X-52.4665 Y45.1523 
G01 X-52.3336 Y45.0973 
G01 X-52.2140 Y45.0173 
G01 X-52.1123 Y44.9156 
G01 X-52.0323 Y44.7960 
G01 X-51.9773 Y44.6630 
G01 X-51.9492 Y44.5219 
G01 X-51.9492 Y44.3781 
G01 X-51.9773 Y44.2369 
G01 X-52.0323 Y44.1040 
G01 X-52.1123 Y43.9844 
G01 X-52.2140 Y43.8827 
G01 X-52.3336 Y43.8027 
G01 X-52.4665 Y43.7477 
G01 X-52.6077 Y43.7196 
G01 X-54.0723 Y43.7196 
G01 X-54.2135 Y43.7477 
G01 X-54.3464 Y43.8027 
G01 X-54.4660 Y43.8827 
G01 X-54.5569 Y43.9736 
G01 X-56.3177 Y43.9736 
G01 X-57.4038 Y42.8875 
G01 X-57.4925 Y42.7988 
G01 X-57.6011 Y42.7361 
G01 X-57.7223 Y42.7036 
G01 X-65.5636 Y42.7036 
G01 X-65.5636 Y42.6840 
G01 X-65.4611 Y42.6154 
G01 X-65.3346 Y42.4889 
G01 X-65.2352 Y42.3402 
G01 X-65.1667 Y42.1749 
G01 X-65.1318 Y41.9995 
G01 X-65.1318 Y41.8205 
G01 X-65.1667 Y41.6451 
G01 X-65.2352 Y41.4798 
G01 X-65.3346 Y41.3311 
G01 X-65.4611 Y41.2046 
G01 X-65.5636 Y41.1360 
G01 X-65.5636 Y32.5823 
G01 X-63.9377 Y30.9564 
G01 X-58.6173 Y30.9564 
G01 X-54.9025 Y34.6712 
G01 X-54.7939 Y34.7339 
G01 X-54.6727 Y34.7664 
G01 X-45.1437 Y34.7664 
G01 X-42.6644 Y35.3862 
G01 X-42.6077 Y35.4014 
G01 X-42.6036 Y35.4014 
G01 X-42.5997 Y35.4024 
G01 X-42.5410 Y35.4014 
G01 X-38.9323 Y35.4014 
G01 X-36.0364 Y38.2973 
G01 X-36.0364 Y48.9577 
G01 X-36.0039 Y49.0789 
G01 X-35.9412 Y49.1875 
G01 X-35.8525 Y49.2762 
G01 X-34.0112 Y51.1175 
G01 X-34.0362 Y51.1425 
G01 X-34.0989 Y51.2511 
G01 X-34.1314 Y51.3723 
G01 X-34.1314 Y67.7477 
G01 X-37.6623 Y71.2786 
G01 X-50.8785 Y71.2786 
G01 X-51.1325 Y71.0246 
G01 X-51.7375 Y71.0246 
G01 X-52.1654 Y71.4525 
G01 X-52.1654 Y72.0575 
G01 X-51.7375 Y72.4854 
G01 X-51.1325 Y72.4854 
G01 X-50.8785 Y72.2314 
G01 X-37.4023 Y72.2314 
G01 X-37.2811 Y72.1989 
G01 X-37.1725 Y72.1362 
G01 X-33.3625 Y68.3262 
G01 X-33.2738 Y68.2375 
G01 X-33.2111 Y68.1289 
G01 X-33.1786 Y68.0077 
G01 X-33.1786 Y51.6323 
G01 X-32.8227 Y51.2764 
G01 X-31.6969 Y51.2764 
G01 X-31.6060 Y51.3673 
G01 X-31.4864 Y51.4473 
G01 X-31.3534 Y51.5023 
G01 X-31.2123 Y51.5304 
G01 X-29.7477 Y51.5304 
G01 X-29.6065 Y51.5023 
G01 X-29.4843 Y51.4517 
G01 X-27.7598 Y52.0265 
G01 X-27.6764 Y52.0823 
G01 X-27.5434 Y52.1373 
G01 X-27.4023 Y52.1654 
G01 X-25.9377 Y52.1654 
G01 X-25.7965 Y52.1373 
G01 X-25.6636 Y52.0823 
G01 X-25.5440 Y52.0023 
G01 X-25.4531 Y51.9114 
G01 X-22.7973 Y51.9114 
G01 X-22.6761 Y51.8789 
G01 X-22.5675 Y51.8162 
G01 X-22.4788 Y51.7275 
G01 X-19.9388 Y49.1875 
G01 X-19.8761 Y49.0789 
G01 X-19.8436 Y48.9577 
G01 X-19.8436 Y8.1923 
G01 X-19.8761 Y8.0711 
G01 X-19.9388 Y7.9625 
G00 Z1.0000 
G00 X-21.2088 Y8.5975 
G01 Z-0.1000 F254.00 
G01 X-21.2975 Y8.5088 F300.00 
G01 X-26.3775 Y3.4288 
G01 X-26.4861 Y3.3661 
G01 X-26.6073 Y3.3336 
G01 X-83.2477 Y3.3336 
G01 X-83.3689 Y3.3661 
G01 X-83.4775 Y3.4288 
G01 X-84.8362 Y4.7875 
G01 X-84.8989 Y4.8961 
G01 X-84.9314 Y5.0173 
G01 X-84.9314 Y15.0427 
G01 X-98.1712 Y28.2825 
G01 X-98.2339 Y28.3911 
G01 X-98.2664 Y28.5123 
G01 X-98.2664 Y40.7027 
G01 X-98.2339 Y40.8239 
G01 X-98.1712 Y40.9325 
G01 X-98.0825 Y41.0212 
G01 X-96.8125 Y42.2912 
G01 X-96.7039 Y42.3539 
G01 X-96.5827 Y42.3864 
G01 X-96.4573 Y42.3864 
G01 X-96.3361 Y42.3539 
G01 X-96.2275 Y42.2912 
G01 X-96.1388 Y42.2025 
G01 X-96.0820 Y42.1042 
G01 X-96.0820 Y42.2546 
G01 X-95.7264 Y42.6102 
G01 X-95.7264 Y44.6086 
G01 X-96.5985 Y44.6086 
G01 X-96.8525 Y44.3546 
G01 X-97.4575 Y44.3546 
G01 X-97.7115 Y44.6086 
G01 X-99.1227 Y44.6086 
G01 X-99.2439 Y44.6411 
G01 X-99.3525 Y44.7038 
G01 X-101.4417 Y46.7930 
G01 X-102.4439 Y46.7930 
G01 X-102.6047 Y46.8250 
G01 X-102.7561 Y46.8877 
G01 X-102.8924 Y46.9787 
G01 X-103.0083 Y47.0946 
G01 X-103.0993 Y47.2309 
G01 X-103.1620 Y47.3823 
G01 X-103.1940 Y47.5431 
G01 X-103.1940 Y47.7069 
G01 X-103.1620 Y47.8677 
G01 X-103.0993 Y48.0191 
G01 X-103.0083 Y48.1554 
G01 X-102.8924 Y48.2713 
G01 X-102.7561 Y48.3623 
G01 X-102.6047 Y48.4250 
G01 X-102.4439 Y48.4570 
G01 X-100.7561 Y48.4570 
G01 X-100.5953 Y48.4250 
G01 X-100.4439 Y48.3623 
G01 X-100.3076 Y48.2713 
G01 X-100.1917 Y48.1554 
G01 X-100.1007 Y48.0191 
G01 X-100.0380 Y47.8677 
G01 X-100.0060 Y47.7069 
G01 X-100.0060 Y47.5431 
G01 X-100.0380 Y47.3823 
G01 X-100.1007 Y47.2309 
G01 X-100.1917 Y47.0946 
G01 X-100.2938 Y46.9926 
G01 X-98.8627 Y45.5614 
G01 X-97.7115 Y45.5614 
G01 X-97.4575 Y45.8154 
G01 X-96.8525 Y45.8154 
G01 X-96.5985 Y45.5614 
G01 X-93.2665 Y45.5614 
G01 X-93.0125 Y45.8154 
G01 X-92.4075 Y45.8154 
G01 X-91.9796 Y45.3875 
G01 X-91.9796 Y44.7825 
G01 X-92.4075 Y44.3546 
G01 X-93.0125 Y44.3546 
G01 X-93.2665 Y44.6086 
G01 X-94.7736 Y44.6086 
G01 X-94.7736 Y42.6102 
G01 X-94.4180 Y42.2546 
G01 X-94.4180 Y41.5654 
G01 X-94.9054 Y41.0780 
G01 X-95.5946 Y41.0780 
G01 X-96.0820 Y41.5654 
G01 X-96.0820 Y41.7158 
G01 X-96.1388 Y41.6175 
G01 X-97.3136 Y40.4427 
G01 X-97.3136 Y28.7723 
G01 X-84.1625 Y15.6212 
G01 X-84.0738 Y15.5325 
G01 X-84.0111 Y15.4239 
G01 X-83.9786 Y15.3027 
G01 X-83.9786 Y5.2773 
G01 X-82.9877 Y4.2864 
G01 X-26.8673 Y4.2864 
G01 X-22.0664 Y9.0873 
G01 X-22.0664 Y29.6477 
G01 X-24.3273 Y31.9086 
G01 X-27.2463 Y31.9086 
G01 X-29.7256 Y31.2888 
G01 X-29.7823 Y31.2736 
G01 X-29.7864 Y31.2736 
G01 X-29.7903 Y31.2726 
G01 X-29.8490 Y31.2736 
G01 X-35.9977 Y31.2736 
G01 X-36.4488 Y30.8225 
G01 X-36.5375 Y30.7338 
G01 X-36.6461 Y30.6711 
G01 X-36.7673 Y30.6386 
G01 X-40.6931 Y30.6386 
G01 X-40.7840 Y30.5477 
G01 X-40.9036 Y30.4677 
G01 X-41.0365 Y30.4127 
G01 X-41.1777 Y30.3846 
G01 X-42.6423 Y30.3846 
G01 X-42.7835 Y30.4127 
G01 X-42.9164 Y30.4677 
G01 X-42.9376 Y30.4819 
G01 X-44.2536 Y30.0433 
G01 X-44.2661 Y30.0361 
G01 X-44.3129 Y30.0235 
G01 X-44.3588 Y30.0082 
G01 X-44.3733 Y30.0073 
G01 X-44.3873 Y30.0036 
G01 X-44.4357 Y30.0036 
G01 X-44.4841 Y30.0007 
G01 X-44.4982 Y30.0036 
G01 X-44.5031 Y30.0036 
G01 X-44.5940 Y29.9127 
G01 X-44.7136 Y29.8327 
G01 X-44.8465 Y29.7777 
G01 X-44.9877 Y29.7496 
G01 X-46.4523 Y29.7496 
G01 X-46.5934 Y29.7777 
G01 X-46.7264 Y29.8327 
G01 X-46.8460 Y29.9127 
G01 X-46.9369 Y30.0036 
G01 X-53.7777 Y30.0036 
G01 X-58.6738 Y25.1075 
G01 X-58.7625 Y25.0188 
G01 X-58.8711 Y24.9561 
G01 X-58.9923 Y24.9236 
G01 X-59.7431 Y24.9236 
G01 X-59.8340 Y24.8327 
G01 X-59.9536 Y24.7527 
G01 X-60.0865 Y24.6977 
G01 X-60.2277 Y24.6696 
G01 X-61.6923 Y24.6696 
G01 X-61.8334 Y24.6977 
G01 X-61.9664 Y24.7527 
G01 X-62.0860 Y24.8327 
G01 X-62.1769 Y24.9236 
G01 X-64.8327 Y24.9236 
G01 X-64.9539 Y24.9561 
G01 X-65.0625 Y25.0188 
G01 X-66.8723 Y26.8286 
G01 X-69.0760 Y26.8286 
G01 X-69.1446 Y26.7261 
G01 X-69.2711 Y26.5996 
G01 X-69.4198 Y26.5002 
G01 X-69.5851 Y26.4317 
G01 X-69.7605 Y26.3968 
G01 X-69.9394 Y26.3968 
G01 X-70.1149 Y26.4317 
G01 X-70.2802 Y26.5002 
G01 X-70.4289 Y26.5996 
G01 X-70.5554 Y26.7261 
G01 X-70.6240 Y26.8286 
G01 X-74.0977 Y26.8286 
G01 X-75.8188 Y25.1075 
G01 X-75.9075 Y25.0188 
G01 X-76.0161 Y24.9561 
G01 X-76.1373 Y24.9236 
G01 X-78.7931 Y24.9236 
G01 X-78.8840 Y24.8327 
G01 X-79.0036 Y24.7527 
G01 X-79.1365 Y24.6977 
G01 X-79.2777 Y24.6696 
G01 X-80.7423 Y24.6696 
G01 X-80.8834 Y24.6977 
G01 X-81.0164 Y24.7527 
G01 X-81.1360 Y24.8327 
G01 X-81.2377 Y24.9344 
G01 X-81.3177 Y25.0540 
G01 X-81.3727 Y25.1869 
G01 X-81.4008 Y25.3281 
G01 X-81.4008 Y25.4719 
G01 X-81.3727 Y25.6131 
G01 X-81.3177 Y25.7460 
G01 X-81.2377 Y25.8656 
G01 X-81.1360 Y25.9673 
G01 X-81.0164 Y26.0473 
G01 X-80.8834 Y26.1023 
G01 X-80.7423 Y26.1304 
G01 X-79.2777 Y26.1304 
G01 X-79.1365 Y26.1023 
G01 X-79.0036 Y26.0473 
G01 X-78.8840 Y25.9673 
G01 X-78.7931 Y25.8764 
G01 X-76.3973 Y25.8764 
G01 X-74.6762 Y27.5975 
G01 X-74.5875 Y27.6862 
G01 X-74.4789 Y27.7489 
G01 X-74.3577 Y27.7814 
G01 X-73.3998 Y27.7814 
G01 X-73.3998 Y29.8219 
G01 X-73.7554 Y30.1775 
G01 X-73.7554 Y30.7825 
G01 X-73.3275 Y31.2104 
G01 X-72.7225 Y31.2104 
G01 X-72.2946 Y30.7825 
G01 X-72.2946 Y30.1775 
G01 X-72.6502 Y29.8219 
G01 X-72.6502 Y27.7814 
G01 X-70.6240 Y27.7814 
G01 X-70.5554 Y27.8839 
G01 X-70.4289 Y28.0104 
G01 X-70.2802 Y28.1098 
G01 X-70.1149 Y28.1783 
G01 X-69.9394 Y28.2132 
G01 X-69.7605 Y28.2132 
G01 X-69.5851 Y28.1783 
G01 X-69.4198 Y28.1098 
G01 X-69.2711 Y28.0104 
G01 X-69.1446 Y27.8839 
G01 X-69.0760 Y27.7814 
G01 X-66.6123 Y27.7814 
G01 X-66.4911 Y27.7489 
G01 X-66.3825 Y27.6862 
G01 X-66.2938 Y27.5975 
G01 X-64.5727 Y25.8764 
G01 X-62.1769 Y25.8764 
G01 X-62.0860 Y25.9673 
G01 X-61.9664 Y26.0473 
G01 X-61.8334 Y26.1023 
G01 X-61.6923 Y26.1304 
G01 X-60.2277 Y26.1304 
G01 X-60.0865 Y26.1023 
G01 X-59.9536 Y26.0473 
G01 X-59.8340 Y25.9673 
G01 X-59.7431 Y25.8764 
G01 X-59.2523 Y25.8764 
G01 X-54.2675 Y30.8612 
G01 X-54.1589 Y30.9239 
G01 X-54.0377 Y30.9564 
G01 X-46.9369 Y30.9564 
G01 X-46.8460 Y31.0473 
G01 X-46.7264 Y31.1273 
G01 X-46.5934 Y31.1823 
G01 X-46.4523 Y31.2104 
G01 X-44.9877 Y31.2104 
G01 X-44.8465 Y31.1823 
G01 X-44.7136 Y31.1273 
G01 X-44.5940 Y31.0473 
G01 X-44.5091 Y30.9625 
G01 X-43.2504 Y31.3820 
G01 X-43.2177 Y31.4610 
G01 X-43.1377 Y31.5806 
G01 X-43.0360 Y31.6823 
G01 X-42.9164 Y31.7623 
G01 X-42.7835 Y31.8173 
G01 X-42.6423 Y31.8454 
G01 X-41.1777 Y31.8454 
G01 X-41.0365 Y31.8173 
G01 X-40.9036 Y31.7623 
G01 X-40.7840 Y31.6823 
G01 X-40.6931 Y31.5914 
G01 X-37.0273 Y31.5914 
G01 X-36.4875 Y32.1312 
G01 X-36.3789 Y32.1939 
G01 X-36.2577 Y32.2264 
G01 X-29.9036 Y32.2264 
G01 X-27.4244 Y32.8462 
G01 X-27.3677 Y32.8614 
G01 X-27.3636 Y32.8614 
G01 X-27.3597 Y32.8624 
G01 X-27.3010 Y32.8614 
G01 X-24.0673 Y32.8614 
G01 X-23.9461 Y32.8289 
G01 X-23.8375 Y32.7662 
G01 X-23.7488 Y32.6775 
G01 X-21.2088 Y30.1375 
G01 X-21.1461 Y30.0289 
G01 X-21.1136 Y29.9077 
G01 X-21.1136 Y8.8273 
G01 X-21.1461 Y8.7061 
G01 X-21.2088 Y8.5975 
G00 Z1.0000 
G00 X-22.4788 Y9.2325 
G01 Z-0.1000 F254.00 
G01 X-26.9238 Y4.7875 F300.00 
G01 X-27.0125 Y4.6988 
G01 X-27.1211 Y4.6361 
G01 X-27.2423 Y4.6036 
G01 X-74.3577 Y4.6036 
G01 X-74.4789 Y4.6361 
G01 X-74.5875 Y4.6988 
G01 X-75.2225 Y5.3338 
G01 X-75.3112 Y5.4225 
G01 X-75.3739 Y5.5311 
G01 X-75.4064 Y5.6523 
G01 X-75.4064 Y7.6827 
G01 X-75.3739 Y7.8039 
G01 X-75.3112 Y7.9125 
G01 X-74.0412 Y9.1825 
G01 X-73.9525 Y9.2712 
G01 X-73.8439 Y9.3339 
G01 X-73.7227 Y9.3664 
G01 X-70.0473 Y9.3664 
G01 X-69.6914 Y9.7223 
G01 X-69.6914 Y10.9536 
G01 X-76.8977 Y10.9536 
G01 X-77.0189 Y10.9861 
G01 X-77.1275 Y11.0488 
G01 X-77.2162 Y11.1375 
G01 X-78.3023 Y12.2236 
G01 X-78.7931 Y12.2236 
G01 X-78.8840 Y12.1327 
G01 X-79.0036 Y12.0527 
G01 X-79.1365 Y11.9977 
G01 X-79.2777 Y11.9696 
G01 X-80.7423 Y11.9696 
G01 X-80.8834 Y11.9977 
G01 X-81.0164 Y12.0527 
G01 X-81.1360 Y12.1327 
G01 X-81.2377 Y12.2344 
G01 X-81.3177 Y12.3540 
G01 X-81.3727 Y12.4869 
G01 X-81.4008 Y12.6281 
G01 X-81.4008 Y12.7719 
G01 X-81.3727 Y12.9131 
G01 X-81.3177 Y13.0460 
G01 X-81.2377 Y13.1656 
G01 X-81.1360 Y13.2673 
G01 X-81.0164 Y13.3473 
G01 X-80.8834 Y13.4023 
G01 X-80.7423 Y13.4304 
G01 X-79.2777 Y13.4304 
G01 X-79.1365 Y13.4023 
G01 X-79.0036 Y13.3473 
G01 X-78.8840 Y13.2673 
G01 X-78.7931 Y13.1764 
G01 X-78.0423 Y13.1764 
G01 X-77.9211 Y13.1439 
G01 X-77.8125 Y13.0812 
G01 X-76.6377 Y11.9064 
G01 X-68.7773 Y11.9064 
G01 X-67.6912 Y12.9925 
G01 X-67.6025 Y13.0812 
G01 X-67.4939 Y13.1439 
G01 X-67.3727 Y13.1764 
G01 X-62.1769 Y13.1764 
G01 X-62.0860 Y13.2673 
G01 X-61.9664 Y13.3473 
G01 X-61.8334 Y13.4023 
G01 X-61.6923 Y13.4304 
G01 X-60.2277 Y13.4304 
G01 X-60.0865 Y13.4023 
G01 X-59.9536 Y13.3473 
G01 X-59.8340 Y13.2673 
G01 X-59.7323 Y13.1656 
G01 X-59.6523 Y13.0460 
G01 X-59.5973 Y12.9131 
G01 X-59.5692 Y12.7719 
G01 X-59.5692 Y12.6281 
G01 X-59.5973 Y12.4869 
G01 X-59.6523 Y12.3540 
G01 X-59.7323 Y12.2344 
G01 X-59.8340 Y12.1327 
G01 X-59.9536 Y12.0527 
G01 X-60.0865 Y11.9977 
G01 X-60.2277 Y11.9696 
G01 X-61.6923 Y11.9696 
G01 X-61.8334 Y11.9977 
G01 X-61.9664 Y12.0527 
G01 X-62.0860 Y12.1327 
G01 X-62.1769 Y12.2236 
G01 X-67.1127 Y12.2236 
G01 X-68.2875 Y11.0488 
G01 X-68.3961 Y10.9861 
G01 X-68.5173 Y10.9536 
G01 X-68.7386 Y10.9536 
G01 X-68.7386 Y9.4623 
G01 X-68.7711 Y9.3411 
G01 X-68.8338 Y9.2325 
G01 X-69.5575 Y8.5088 
G01 X-69.6661 Y8.4461 
G01 X-69.7873 Y8.4136 
G01 X-73.4627 Y8.4136 
G01 X-74.4536 Y7.4227 
G01 X-74.4536 Y5.9123 
G01 X-74.0977 Y5.5564 
G01 X-27.5023 Y5.5564 
G01 X-23.3364 Y9.7223 
G01 X-23.3364 Y16.9477 
G01 X-24.3273 Y17.9386 
G01 X-25.4531 Y17.9386 
G01 X-25.5440 Y17.8477 
G01 X-25.6636 Y17.7677 
G01 X-25.7965 Y17.7127 
G01 X-25.9377 Y17.6846 
G01 X-27.4023 Y17.6846 
G01 X-27.5434 Y17.7127 
G01 X-27.6764 Y17.7677 
G01 X-27.7960 Y17.8477 
G01 X-27.8977 Y17.9494 
G01 X-27.9777 Y18.0690 
G01 X-28.0327 Y18.2019 
G01 X-28.0608 Y18.3431 
G01 X-28.0608 Y18.4869 
G01 X-28.0327 Y18.6281 
G01 X-27.9777 Y18.7610 
G01 X-27.8977 Y18.8806 
G01 X-27.7960 Y18.9823 
G01 X-27.6764 Y19.0623 
G01 X-27.5434 Y19.1173 
G01 X-27.4023 Y19.1454 
G01 X-25.9377 Y19.1454 
G01 X-25.7965 Y19.1173 
G01 X-25.6636 Y19.0623 
G01 X-25.5440 Y18.9823 
G01 X-25.4531 Y18.8914 
G01 X-24.0673 Y18.8914 
G01 X-23.9461 Y18.8589 
G01 X-23.8375 Y18.7962 
G01 X-22.5675 Y17.5262 
G01 X-22.4788 Y17.4375 
G01 X-22.4161 Y17.3289 
G01 X-22.3836 Y17.2077 
G01 X-22.3836 Y9.4623 
G01 X-22.4161 Y9.3411 
G01 X-22.4788 Y9.2325 
G00 Z1.0000 
G00 X-23.7488 Y9.8675 
G01 Z-0.1000 F254.00 
G01 X-27.5588 Y6.0575 F300.00 
G01 X-27.6475 Y5.9688 
G01 X-27.7561 Y5.9061 
G01 X-27.8773 Y5.8736 
G01 X-48.9577 Y5.8736 
G01 X-49.0789 Y5.9061 
G01 X-49.1875 Y5.9688 
G01 X-51.6323 Y8.4136 
G01 X-56.5777 Y8.4136 
G01 X-56.6989 Y8.4461 
G01 X-56.8075 Y8.5088 
G01 X-57.9823 Y9.6836 
G01 X-59.7431 Y9.6836 
G01 X-59.8340 Y9.5927 
G01 X-59.9536 Y9.5127 
G01 X-60.0865 Y9.4577 
G01 X-60.2277 Y9.4296 
G01 X-61.6923 Y9.4296 
G01 X-61.8334 Y9.4577 
G01 X-61.9664 Y9.5127 
G01 X-62.0860 Y9.5927 
G01 X-62.1877 Y9.6944 
G01 X-62.2677 Y9.8140 
G01 X-62.3227 Y9.9469 
G01 X-62.3508 Y10.0881 
G01 X-62.3508 Y10.2319 
G01 X-62.3227 Y10.3730 
G01 X-62.2677 Y10.5060 
G01 X-62.1877 Y10.6256 
G01 X-62.0860 Y10.7273 
G01 X-61.9664 Y10.8073 
G01 X-61.8334 Y10.8623 
G01 X-61.6923 Y10.8904 
G01 X-60.2277 Y10.8904 
G01 X-60.0865 Y10.8623 
G01 X-59.9536 Y10.8073 
G01 X-59.8340 Y10.7273 
G01 X-59.7431 Y10.6364 
G01 X-57.7223 Y10.6364 
G01 X-57.6011 Y10.6039 
G01 X-57.4925 Y10.5412 
G01 X-57.4038 Y10.4525 
G01 X-56.3177 Y9.3664 
G01 X-51.3723 Y9.3664 
G01 X-51.2511 Y9.3339 
G01 X-51.1425 Y9.2712 
G01 X-51.0538 Y9.1825 
G01 X-48.6977 Y6.8264 
G01 X-28.1373 Y6.8264 
G01 X-24.6064 Y10.3573 
G01 X-24.6064 Y16.3127 
G01 X-24.9623 Y16.6686 
G01 X-28.0027 Y16.6686 
G01 X-28.1239 Y16.7011 
G01 X-28.2325 Y16.7638 
G01 X-28.3212 Y16.8525 
G01 X-28.7723 Y17.3036 
G01 X-29.2631 Y17.3036 
G01 X-29.3540 Y17.2127 
G01 X-29.4736 Y17.1327 
G01 X-29.6065 Y17.0777 
G01 X-29.7477 Y17.0496 
G01 X-31.2123 Y17.0496 
G01 X-31.3534 Y17.0777 
G01 X-31.4864 Y17.1327 
G01 X-31.6060 Y17.2127 
G01 X-31.7077 Y17.3144 
G01 X-31.7877 Y17.4340 
G01 X-31.8427 Y17.5669 
G01 X-31.8708 Y17.7081 
G01 X-31.8708 Y17.8519 
G01 X-31.8427 Y17.9931 
G01 X-31.7877 Y18.1260 
G01 X-31.7077 Y18.2456 
G01 X-31.6060 Y18.3473 
G01 X-31.4864 Y18.4273 
G01 X-31.3534 Y18.4823 
G01 X-31.2123 Y18.5104 
G01 X-29.7477 Y18.5104 
G01 X-29.6065 Y18.4823 
G01 X-29.4736 Y18.4273 
G01 X-29.3540 Y18.3473 
G01 X-29.2631 Y18.2564 
G01 X-28.5123 Y18.2564 
G01 X-28.3911 Y18.2239 
G01 X-28.2825 Y18.1612 
G01 X-27.7427 Y17.6214 
G01 X-24.7023 Y17.6214 
G01 X-24.5811 Y17.5889 
G01 X-24.4725 Y17.5262 
G01 X-23.8375 Y16.8912 
G01 X-23.7488 Y16.8025 
G01 X-23.6861 Y16.6939 
G01 X-23.6536 Y16.5727 
G01 X-23.6536 Y10.0973 
G01 X-23.6861 Y9.9761 
G01 X-23.7488 Y9.8675 
G00 Z1.0000 
G00 X-25.4423 Y15.4094 
G01 Z-0.1000 F254.00 
G01 X-25.5440 Y15.3077 F300.00 
G01 X-25.6636 Y15.2277 
G01 X-25.7965 Y15.1727 
G01 X-25.9377 Y15.1446 
G01 X-27.4023 Y15.1446 
G01 X-27.5434 Y15.1727 
G01 X-27.6764 Y15.2277 
G01 X-27.7960 Y15.3077 
G01 X-27.8869 Y15.3986 
G01 X-28.6377 Y15.3986 
G01 X-28.7589 Y15.4311 
G01 X-28.8675 Y15.4938 
G01 X-28.9562 Y15.5825 
G01 X-29.4073 Y16.0336 
G01 X-32.1877 Y16.0336 
G01 X-37.1725 Y11.0488 
G01 X-37.2811 Y10.9861 
G01 X-37.4023 Y10.9536 
G01 X-47.0527 Y10.9536 
G01 X-47.1739 Y10.9861 
G01 X-47.2825 Y11.0488 
G01 X-47.3712 Y11.1375 
G01 X-50.9973 Y14.7636 
G01 X-52.1231 Y14.7636 
G01 X-52.2140 Y14.6727 
G01 X-52.3336 Y14.5927 
G01 X-52.4665 Y14.5377 
G01 X-52.6077 Y14.5096 
G01 X-54.0723 Y14.5096 
G01 X-54.2135 Y14.5377 
G01 X-54.3464 Y14.5927 
G01 X-54.4660 Y14.6727 
G01 X-54.5569 Y14.7636 
G01 X-56.5777 Y14.7636 
G01 X-56.6989 Y14.7961 
G01 X-56.8075 Y14.8588 
G01 X-56.8962 Y14.9475 
G01 X-57.9823 Y16.0336 
G01 X-65.2077 Y16.0336 
G01 X-66.3825 Y14.8588 
G01 X-66.4911 Y14.7961 
G01 X-66.6123 Y14.7636 
G01 X-71.1731 Y14.7636 
G01 X-71.2640 Y14.6727 
G01 X-71.3836 Y14.5927 
G01 X-71.5165 Y14.5377 
G01 X-71.6577 Y14.5096 
G01 X-73.1223 Y14.5096 
G01 X-73.2635 Y14.5377 
G01 X-73.3964 Y14.5927 
G01 X-73.5160 Y14.6727 
G01 X-73.6177 Y14.7744 
G01 X-73.6977 Y14.8940 
G01 X-73.7527 Y15.0269 
G01 X-73.7808 Y15.1681 
G01 X-73.7808 Y15.3119 
G01 X-73.7527 Y15.4530 
G01 X-73.6977 Y15.5860 
G01 X-73.6177 Y15.7056 
G01 X-73.5160 Y15.8073 
G01 X-73.3964 Y15.8873 
G01 X-73.2635 Y15.9423 
G01 X-73.1223 Y15.9704 
G01 X-71.6577 Y15.9704 
G01 X-71.5165 Y15.9423 
G01 X-71.3836 Y15.8873 
G01 X-71.2640 Y15.8073 
G01 X-71.1731 Y15.7164 
G01 X-66.8723 Y15.7164 
G01 X-65.7862 Y16.8025 
G01 X-65.6975 Y16.8912 
G01 X-65.5889 Y16.9539 
G01 X-65.4677 Y16.9864 
G01 X-57.7223 Y16.9864 
G01 X-57.6011 Y16.9539 
G01 X-57.4925 Y16.8912 
G01 X-56.3177 Y15.7164 
G01 X-54.5569 Y15.7164 
G01 X-54.4660 Y15.8073 
G01 X-54.3464 Y15.8873 
G01 X-54.2135 Y15.9423 
G01 X-54.0723 Y15.9704 
G01 X-52.6077 Y15.9704 
G01 X-52.4665 Y15.9423 
G01 X-52.3336 Y15.8873 
G01 X-52.2140 Y15.8073 
G01 X-52.1231 Y15.7164 
G01 X-50.7373 Y15.7164 
G01 X-50.6161 Y15.6839 
G01 X-50.5075 Y15.6212 
G01 X-46.7927 Y11.9064 
G01 X-37.6623 Y11.9064 
G01 X-32.7662 Y16.8025 
G01 X-32.6775 Y16.8912 
G01 X-32.5689 Y16.9539 
G01 X-32.4477 Y16.9864 
G01 X-29.1473 Y16.9864 
G01 X-29.0261 Y16.9539 
G01 X-28.9175 Y16.8912 
G01 X-28.3777 Y16.3514 
G01 X-27.8869 Y16.3514 
G01 X-27.7960 Y16.4423 
G01 X-27.6764 Y16.5223 
G01 X-27.5434 Y16.5773 
G01 X-27.4023 Y16.6054 
G01 X-25.9377 Y16.6054 
G01 X-25.7965 Y16.5773 
G01 X-25.6636 Y16.5223 
G01 X-25.5440 Y16.4423 
G01 X-25.4423 Y16.3406 
G01 X-25.3623 Y16.2210 
G01 X-25.3073 Y16.0880 
G01 X-25.2792 Y15.9469 
G01 X-25.2792 Y15.8031 
G01 X-25.3073 Y15.6619 
G01 X-25.3623 Y15.5290 
G01 X-25.4423 Y15.4094 
G00 Z1.0000 
G00 X-29.1173 Y15.4530 
G01 Z-0.1000 F254.00 
G01 X-29.0892 Y15.3119 F300.00 
G01 X-29.0892 Y15.1681 
G01 X-29.1173 Y15.0269 
G01 X-29.1723 Y14.8940 
G01 X-29.2523 Y14.7744 
G01 X-29.3540 Y14.6727 
G01 X-29.4736 Y14.5927 
G01 X-29.6065 Y14.5377 
G01 X-29.7477 Y14.5096 
G01 X-30.0036 Y14.5096 
G01 X-30.0036 Y12.0978 
G01 X-29.9995 Y12.0681 
G01 X-30.0036 Y12.0353 
G01 X-30.0036 Y12.0023 
G01 X-30.0114 Y11.9734 
G01 X-30.0151 Y11.9437 
G01 X-30.0275 Y11.9131 
G01 X-30.0361 Y11.8811 
G01 X-30.0510 Y11.8552 
G01 X-30.0623 Y11.8275 
G01 X-30.0823 Y11.8011 
G01 X-30.0988 Y11.7725 
G01 X-30.1199 Y11.7513 
G01 X-30.1380 Y11.7275 
G01 X-30.1641 Y11.7072 
G01 X-30.1875 Y11.6838 
G01 X-30.2134 Y11.6688 
G01 X-35.8791 Y7.2622 
G01 X-35.9025 Y7.2388 
G01 X-35.9284 Y7.2238 
G01 X-35.9520 Y7.2054 
G01 X-35.9825 Y7.1926 
G01 X-36.0111 Y7.1761 
G01 X-36.0400 Y7.1683 
G01 X-36.0676 Y7.1567 
G01 X-36.1003 Y7.1522 
G01 X-36.1323 Y7.1436 
G01 X-36.1622 Y7.1436 
G01 X-36.1919 Y7.1395 
G01 X-36.2247 Y7.1436 
G01 X-48.3227 Y7.1436 
G01 X-48.4439 Y7.1761 
G01 X-48.5525 Y7.2388 
G01 X-53.2833 Y11.9696 
G01 X-54.0723 Y11.9696 
G01 X-54.2135 Y11.9977 
G01 X-54.3464 Y12.0527 
G01 X-54.4660 Y12.1327 
G01 X-54.5677 Y12.2344 
G01 X-54.6477 Y12.3540 
G01 X-54.7027 Y12.4869 
G01 X-54.7308 Y12.6281 
G01 X-54.7308 Y12.7719 
G01 X-54.7027 Y12.9131 
G01 X-54.6477 Y13.0460 
G01 X-54.5677 Y13.1656 
G01 X-54.4660 Y13.2673 
G01 X-54.3464 Y13.3473 
G01 X-54.2135 Y13.4023 
G01 X-54.0723 Y13.4304 
G01 X-52.6077 Y13.4304 
G01 X-52.4665 Y13.4023 
G01 X-52.3336 Y13.3473 
G01 X-52.2140 Y13.2673 
G01 X-52.1123 Y13.1656 
G01 X-52.0323 Y13.0460 
G01 X-51.9773 Y12.9131 
G01 X-51.9492 Y12.7719 
G01 X-51.9492 Y12.6281 
G01 X-51.9773 Y12.4869 
G01 X-52.0323 Y12.3540 
G01 X-52.1123 Y12.2344 
G01 X-52.1565 Y12.1902 
G01 X-48.0627 Y8.0964 
G01 X-36.3585 Y8.0964 
G01 X-30.9564 Y12.2980 
G01 X-30.9564 Y14.5096 
G01 X-31.2123 Y14.5096 
G01 X-31.3534 Y14.5377 
G01 X-31.4864 Y14.5927 
G01 X-31.6060 Y14.6727 
G01 X-31.7077 Y14.7744 
G01 X-31.7877 Y14.8940 
G01 X-31.8427 Y15.0269 
G01 X-31.8708 Y15.1681 
G01 X-31.8708 Y15.3119 
G01 X-31.8427 Y15.4530 
G01 X-31.7877 Y15.5860 
G01 X-31.7077 Y15.7056 
G01 X-31.6060 Y15.8073 
G01 X-31.4864 Y15.8873 
G01 X-31.3534 Y15.9423 
G01 X-31.2123 Y15.9704 
G01 X-29.7477 Y15.9704 
G01 X-29.6065 Y15.9423 
G01 X-29.4736 Y15.8873 
G01 X-29.3540 Y15.8073 
G01 X-29.2523 Y15.7056 
G01 X-29.1723 Y15.5860 
G01 X-29.1173 Y15.4530 
G00 Z1.0000 
G00 X-29.1406 Y19.6150 
G01 Z-0.1000 F254.00 
G01 X-29.1657 Y19.6150 F300.00 
G01 X-29.1907 Y19.6119 
G01 X-29.2350 Y19.6150 
G01 X-29.6200 Y19.6150 
G01 X-29.7477 Y19.5896 
G01 X-31.2123 Y19.5896 
G01 X-31.3534 Y19.6177 
G01 X-31.4864 Y19.6727 
G01 X-31.6060 Y19.7527 
G01 X-31.7077 Y19.8544 
G01 X-31.7877 Y19.9740 
G01 X-31.8427 Y20.1069 
G01 X-31.8708 Y20.2481 
G01 X-31.8708 Y20.3919 
G01 X-31.8427 Y20.5330 
G01 X-31.7877 Y20.6660 
G01 X-31.7077 Y20.7856 
G01 X-31.6060 Y20.8873 
G01 X-31.4864 Y20.9673 
G01 X-31.3534 Y21.0223 
G01 X-31.2123 Y21.0504 
G01 X-29.7477 Y21.0504 
G01 X-29.6200 Y21.0250 
G01 X-29.3244 Y21.0250 
G01 X-27.7598 Y21.5465 
G01 X-27.6764 Y21.6023 
G01 X-27.5434 Y21.6573 
G01 X-27.4023 Y21.6854 
G01 X-25.9377 Y21.6854 
G01 X-25.7965 Y21.6573 
G01 X-25.6636 Y21.6023 
G01 X-25.5440 Y21.5223 
G01 X-25.4423 Y21.4206 
G01 X-25.3623 Y21.3010 
G01 X-25.3073 Y21.1681 
G01 X-25.2792 Y21.0269 
G01 X-25.2792 Y20.8831 
G01 X-25.3073 Y20.7419 
G01 X-25.3623 Y20.6090 
G01 X-25.4423 Y20.4894 
G01 X-25.5440 Y20.3877 
G01 X-25.6636 Y20.3077 
G01 X-25.7965 Y20.2527 
G01 X-25.9377 Y20.2246 
G01 X-27.2668 Y20.2246 
G01 X-28.9633 Y19.6591 
G01 X-29.0044 Y19.6421 
G01 X-29.0291 Y19.6372 
G01 X-29.0529 Y19.6292 
G01 X-29.0970 Y19.6237 
G01 X-29.1406 Y19.6150 
G00 Z1.0000 
G00 X-29.1406 Y22.1550 
G01 Z-0.1000 F254.00 
G01 X-29.1657 Y22.1550 F300.00 
G01 X-29.1907 Y22.1518 
G01 X-29.2350 Y22.1550 
G01 X-29.6200 Y22.1550 
G01 X-29.7477 Y22.1296 
G01 X-31.2123 Y22.1296 
G01 X-31.3534 Y22.1577 
G01 X-31.4864 Y22.2127 
G01 X-31.6060 Y22.2927 
G01 X-31.7077 Y22.3944 
G01 X-31.7877 Y22.5140 
G01 X-31.8427 Y22.6469 
G01 X-31.8708 Y22.7881 
G01 X-31.8708 Y22.9319 
G01 X-31.8427 Y23.0730 
G01 X-31.7877 Y23.2060 
G01 X-31.7077 Y23.3256 
G01 X-31.6060 Y23.4273 
G01 X-31.4864 Y23.5073 
G01 X-31.3534 Y23.5623 
G01 X-31.2123 Y23.5904 
G01 X-29.7477 Y23.5904 
G01 X-29.6200 Y23.5650 
G01 X-29.3244 Y23.5650 
G01 X-27.7598 Y24.0865 
G01 X-27.6764 Y24.1423 
G01 X-27.5434 Y24.1973 
G01 X-27.4023 Y24.2254 
G01 X-25.9377 Y24.2254 
G01 X-25.7965 Y24.1973 
G01 X-25.6636 Y24.1423 
G01 X-25.5440 Y24.0623 
G01 X-25.4423 Y23.9606 
G01 X-25.3623 Y23.8410 
G01 X-25.3073 Y23.7081 
G01 X-25.2792 Y23.5669 
G01 X-25.2792 Y23.4231 
G01 X-25.3073 Y23.2819 
G01 X-25.3623 Y23.1490 
G01 X-25.4423 Y23.0294 
G01 X-25.5440 Y22.9277 
G01 X-25.6636 Y22.8477 
G01 X-25.7965 Y22.7927 
G01 X-25.9377 Y22.7646 
G01 X-27.2668 Y22.7646 
G01 X-28.9633 Y22.1991 
G01 X-29.0044 Y22.1821 
G01 X-29.0291 Y22.1772 
G01 X-29.0529 Y22.1692 
G01 X-29.0970 Y22.1637 
G01 X-29.1406 Y22.1550 
G00 Z1.0000 
G00 X-29.1406 Y24.6950 
G01 Z-0.1000 F254.00 
G01 X-29.1657 Y24.6950 F300.00 
G01 X-29.1907 Y24.6918 
G01 X-29.2350 Y24.6950 
G01 X-29.6200 Y24.6950 
G01 X-29.7477 Y24.6696 
G01 X-31.2123 Y24.6696 
G01 X-31.3534 Y24.6977 
G01 X-31.4864 Y24.7527 
G01 X-31.6060 Y24.8327 
G01 X-31.7077 Y24.9344 
G01 X-31.7877 Y25.0540 
G01 X-31.8427 Y25.1869 
G01 X-31.8708 Y25.3281 
G01 X-31.8708 Y25.4719 
G01 X-31.8427 Y25.6131 
G01 X-31.7877 Y25.7460 
G01 X-31.7077 Y25.8656 
G01 X-31.6060 Y25.9673 
G01 X-31.4864 Y26.0473 
G01 X-31.3534 Y26.1023 
G01 X-31.2123 Y26.1304 
G01 X-29.7477 Y26.1304 
G01 X-29.6200 Y26.1050 
G01 X-29.3244 Y26.1050 
G01 X-27.7598 Y26.6265 
G01 X-27.6764 Y26.6823 
G01 X-27.5434 Y26.7373 
G01 X-27.4023 Y26.7654 
G01 X-25.9377 Y26.7654 
G01 X-25.7965 Y26.7373 
G01 X-25.6636 Y26.6823 
G01 X-25.5440 Y26.6023 
G01 X-25.4423 Y26.5006 
G01 X-25.3623 Y26.3810 
G01 X-25.3073 Y26.2480 
G01 X-25.2792 Y26.1069 
G01 X-25.2792 Y25.9631 
G01 X-25.3073 Y25.8219 
G01 X-25.3623 Y25.6890 
G01 X-25.4423 Y25.5694 
G01 X-25.5440 Y25.4677 
G01 X-25.6636 Y25.3877 
G01 X-25.7965 Y25.3327 
G01 X-25.9377 Y25.3046 
G01 X-27.2668 Y25.3046 
G01 X-28.9633 Y24.7391 
G01 X-29.0044 Y24.7221 
G01 X-29.0291 Y24.7172 
G01 X-29.0529 Y24.7092 
G01 X-29.0970 Y24.7037 
G01 X-29.1406 Y24.6950 
G00 Z1.0000 
G00 X-29.1406 Y27.2350 
G01 Z-0.1000 F254.00 
G01 X-29.1657 Y27.2350 F300.00 
G01 X-29.1907 Y27.2319 
G01 X-29.2350 Y27.2350 
G01 X-29.6200 Y27.2350 
G01 X-29.7477 Y27.2096 
G01 X-31.2123 Y27.2096 
G01 X-31.3534 Y27.2377 
G01 X-31.4864 Y27.2927 
G01 X-31.6060 Y27.3727 
G01 X-31.7077 Y27.4744 
G01 X-31.7877 Y27.5940 
G01 X-31.8427 Y27.7269 
G01 X-31.8708 Y27.8681 
G01 X-31.8708 Y28.0119 
G01 X-31.8427 Y28.1531 
G01 X-31.7877 Y28.2860 
G01 X-31.7077 Y28.4056 
G01 X-31.6060 Y28.5073 
G01 X-31.4864 Y28.5873 
G01 X-31.3534 Y28.6423 
G01 X-31.2123 Y28.6704 
G01 X-29.7477 Y28.6704 
G01 X-29.6200 Y28.6450 
G01 X-29.3244 Y28.6450 
G01 X-27.7598 Y29.1665 
G01 X-27.6764 Y29.2223 
G01 X-27.5434 Y29.2773 
G01 X-27.4023 Y29.3054 
G01 X-25.9377 Y29.3054 
G01 X-25.7965 Y29.2773 
G01 X-25.6636 Y29.2223 
G01 X-25.5440 Y29.1423 
G01 X-25.4423 Y29.0406 
G01 X-25.3623 Y28.9210 
G01 X-25.3073 Y28.7880 
G01 X-25.2792 Y28.6469 
G01 X-25.2792 Y28.5031 
G01 X-25.3073 Y28.3619 
G01 X-25.3623 Y28.2290 
G01 X-25.4423 Y28.1094 
G01 X-25.5440 Y28.0077 
G01 X-25.6636 Y27.9277 
G01 X-25.7965 Y27.8727 
G01 X-25.9377 Y27.8446 
G01 X-27.2668 Y27.8446 
G01 X-28.9633 Y27.2791 
G01 X-29.0044 Y27.2621 
G01 X-29.0291 Y27.2572 
G01 X-29.0529 Y27.2492 
G01 X-29.0970 Y27.2437 
G01 X-29.1406 Y27.2350 
G00 Z1.0000 
G00 X-29.4415 Y29.8542 
G01 Z-0.1000 F254.00 
G01 X-29.4736 Y29.8327 F300.00 
G01 X-29.6065 Y29.7777 
G01 X-29.7477 Y29.7496 
G01 X-31.2123 Y29.7496 
G01 X-31.3534 Y29.7777 
G01 X-31.4864 Y29.8327 
G01 X-31.6060 Y29.9127 
G01 X-31.7077 Y30.0144 
G01 X-31.7877 Y30.1340 
G01 X-31.8427 Y30.2669 
G01 X-31.8708 Y30.4081 
G01 X-31.8708 Y30.5519 
G01 X-31.8427 Y30.6930 
G01 X-31.7877 Y30.8260 
G01 X-31.7077 Y30.9456 
G01 X-31.6060 Y31.0473 
G01 X-31.4864 Y31.1273 
G01 X-31.3534 Y31.1823 
G01 X-31.2123 Y31.2104 
G01 X-29.8302 Y31.2104 
G01 X-27.7085 Y31.7408 
G01 X-27.6764 Y31.7623 
G01 X-27.5434 Y31.8173 
G01 X-27.4023 Y31.8454 
G01 X-25.9377 Y31.8454 
G01 X-25.7965 Y31.8173 
G01 X-25.6636 Y31.7623 
G01 X-25.5440 Y31.6823 
G01 X-25.4423 Y31.5806 
G01 X-25.3623 Y31.4610 
G01 X-25.3073 Y31.3281 
G01 X-25.2792 Y31.1869 
G01 X-25.2792 Y31.0431 
G01 X-25.3073 Y30.9019 
G01 X-25.3623 Y30.7690 
G01 X-25.4423 Y30.6494 
G01 X-25.5440 Y30.5477 
G01 X-25.6636 Y30.4677 
G01 X-25.7965 Y30.4127 
G01 X-25.9377 Y30.3846 
G01 X-27.3198 Y30.3846 
G01 X-29.4415 Y29.8542 
G00 Z1.0000 
G00 X-29.4415 Y32.3942 
G01 Z-0.1000 F254.00 
G01 X-29.4736 Y32.3727 F300.00 
G01 X-29.6065 Y32.3177 
G01 X-29.7477 Y32.2896 
G01 X-31.2123 Y32.2896 
G01 X-31.3534 Y32.3177 
G01 X-31.4864 Y32.3727 
G01 X-31.6060 Y32.4527 
G01 X-31.7077 Y32.5544 
G01 X-31.7877 Y32.6740 
G01 X-31.8427 Y32.8069 
G01 X-31.8708 Y32.9481 
G01 X-31.8708 Y33.0919 
G01 X-31.8427 Y33.2330 
G01 X-31.7877 Y33.3660 
G01 X-31.7077 Y33.4856 
G01 X-31.6060 Y33.5873 
G01 X-31.4864 Y33.6673 
G01 X-31.3534 Y33.7223 
G01 X-31.2123 Y33.7504 
G01 X-29.8302 Y33.7504 
G01 X-27.7085 Y34.2808 
G01 X-27.6764 Y34.3023 
G01 X-27.5434 Y34.3573 
G01 X-27.4023 Y34.3854 
G01 X-25.9377 Y34.3854 
G01 X-25.7965 Y34.3573 
G01 X-25.6636 Y34.3023 
G01 X-25.5440 Y34.2223 
G01 X-25.4423 Y34.1206 
G01 X-25.3623 Y34.0010 
G01 X-25.3073 Y33.8680 
G01 X-25.2792 Y33.7269 
G01 X-25.2792 Y33.5831 
G01 X-25.3073 Y33.4419 
G01 X-25.3623 Y33.3090 
G01 X-25.4423 Y33.1894 
G01 X-25.5440 Y33.0877 
G01 X-25.6636 Y33.0077 
G01 X-25.7965 Y32.9527 
G01 X-25.9377 Y32.9246 
G01 X-27.3198 Y32.9246 
G01 X-29.4415 Y32.3942 
G00 Z1.0000 
G00 X-29.6200 Y34.8550 
G01 Z-0.1000 F254.00 
G01 X-29.7477 Y34.8296 F300.00 
G01 X-31.2123 Y34.8296 
G01 X-31.3534 Y34.8577 
G01 X-31.4864 Y34.9127 
G01 X-31.6060 Y34.9927 
G01 X-31.7077 Y35.0944 
G01 X-31.7877 Y35.2140 
G01 X-31.8427 Y35.3469 
G01 X-31.8708 Y35.4881 
G01 X-31.8708 Y35.6319 
G01 X-31.8427 Y35.7730 
G01 X-31.7877 Y35.9060 
G01 X-31.7077 Y36.0256 
G01 X-31.6060 Y36.1273 
G01 X-31.4864 Y36.2073 
G01 X-31.3534 Y36.2623 
G01 X-31.2123 Y36.2904 
G01 X-29.7477 Y36.2904 
G01 X-29.6200 Y36.2650 
G01 X-29.3244 Y36.2650 
G01 X-27.7598 Y36.7865 
G01 X-27.6764 Y36.8423 
G01 X-27.5434 Y36.8973 
G01 X-27.4023 Y36.9254 
G01 X-25.9377 Y36.9254 
G01 X-25.7965 Y36.8973 
G01 X-25.6636 Y36.8423 
G01 X-25.5440 Y36.7623 
G01 X-25.4423 Y36.6606 
G01 X-25.3623 Y36.5410 
G01 X-25.3073 Y36.4081 
G01 X-25.2792 Y36.2669 
G01 X-25.2792 Y36.1231 
G01 X-25.3073 Y35.9819 
G01 X-25.3623 Y35.8490 
G01 X-25.4423 Y35.7294 
G01 X-25.5440 Y35.6277 
G01 X-25.6636 Y35.5477 
G01 X-25.7965 Y35.4927 
G01 X-25.9377 Y35.4646 
G01 X-27.2668 Y35.4646 
G01 X-28.9633 Y34.8991 
G01 X-29.0044 Y34.8821 
G01 X-29.0291 Y34.8772 
G01 X-29.0529 Y34.8692 
G01 X-29.0970 Y34.8637 
G01 X-29.1406 Y34.8550 
G01 X-29.1657 Y34.8550 
G01 X-29.1907 Y34.8518 
G01 X-29.2350 Y34.8550 
G01 X-29.6200 Y34.8550 
G00 Z1.0000 
G00 X-29.6200 Y37.3950 
G01 Z-0.1000 F254.00 
G01 X-29.7477 Y37.3696 F300.00 
G01 X-31.2123 Y37.3696 
G01 X-31.3534 Y37.3977 
G01 X-31.4864 Y37.4527 
G01 X-31.6060 Y37.5327 
G01 X-31.7077 Y37.6344 
G01 X-31.7877 Y37.7540 
G01 X-31.8427 Y37.8869 
G01 X-31.8708 Y38.0281 
G01 X-31.8708 Y38.1719 
G01 X-31.8427 Y38.3130 
G01 X-31.7877 Y38.4460 
G01 X-31.7077 Y38.5656 
G01 X-31.6060 Y38.6673 
G01 X-31.4864 Y38.7473 
G01 X-31.3534 Y38.8023 
G01 X-31.2123 Y38.8304 
G01 X-29.7477 Y38.8304 
G01 X-29.6200 Y38.8050 
G01 X-29.3244 Y38.8050 
G01 X-27.7598 Y39.3265 
G01 X-27.6764 Y39.3823 
G01 X-27.5434 Y39.4373 
G01 X-27.4023 Y39.4654 
G01 X-25.9377 Y39.4654 
G01 X-25.7965 Y39.4373 
G01 X-25.6636 Y39.3823 
G01 X-25.5440 Y39.3023 
G01 X-25.4423 Y39.2006 
G01 X-25.3623 Y39.0810 
G01 X-25.3073 Y38.9481 
G01 X-25.2792 Y38.8069 
G01 X-25.2792 Y38.6631 
G01 X-25.3073 Y38.5219 
G01 X-25.3623 Y38.3890 
G01 X-25.4423 Y38.2694 
G01 X-25.5440 Y38.1677 
G01 X-25.6636 Y38.0877 
G01 X-25.7965 Y38.0327 
G01 X-25.9377 Y38.0046 
G01 X-27.2668 Y38.0046 
G01 X-28.9633 Y37.4391 
G01 X-29.0044 Y37.4221 
G01 X-29.0291 Y37.4172 
G01 X-29.0529 Y37.4092 
G01 X-29.0970 Y37.4037 
G01 X-29.1406 Y37.3950 
G01 X-29.1657 Y37.3950 
G01 X-29.1907 Y37.3918 
G01 X-29.2350 Y37.3950 
G01 X-29.6200 Y37.3950 
G00 Z1.0000 
G00 X-29.6200 Y39.9350 
G01 Z-0.1000 F254.00 
G01 X-29.7477 Y39.9096 F300.00 
G01 X-31.2123 Y39.9096 
G01 X-31.3534 Y39.9377 
G01 X-31.4864 Y39.9927 
G01 X-31.6060 Y40.0727 
G01 X-31.7077 Y40.1744 
G01 X-31.7877 Y40.2940 
G01 X-31.8427 Y40.4269 
G01 X-31.8708 Y40.5681 
G01 X-31.8708 Y40.7119 
G01 X-31.8427 Y40.8531 
G01 X-31.7877 Y40.9860 
G01 X-31.7077 Y41.1056 
G01 X-31.6060 Y41.2073 
G01 X-31.4864 Y41.2873 
G01 X-31.3534 Y41.3423 
G01 X-31.2123 Y41.3704 
G01 X-29.7477 Y41.3704 
G01 X-29.6200 Y41.3450 
G01 X-29.3244 Y41.3450 
G01 X-27.7598 Y41.8665 
G01 X-27.6764 Y41.9223 
G01 X-27.5434 Y41.9773 
G01 X-27.4023 Y42.0054 
G01 X-25.9377 Y42.0054 
G01 X-25.7965 Y41.9773 
G01 X-25.6636 Y41.9223 
G01 X-25.5440 Y41.8423 
G01 X-25.4423 Y41.7406 
G01 X-25.3623 Y41.6210 
G01 X-25.3073 Y41.4881 
G01 X-25.2792 Y41.3469 
G01 X-25.2792 Y41.2031 
G01 X-25.3073 Y41.0619 
G01 X-25.3623 Y40.9290 
G01 X-25.4423 Y40.8094 
G01 X-25.5440 Y40.7077 
G01 X-25.6636 Y40.6277 
G01 X-25.7965 Y40.5727 
G01 X-25.9377 Y40.5446 
G01 X-27.2668 Y40.5446 
G01 X-28.9633 Y39.9791 
G01 X-29.0044 Y39.9621 
G01 X-29.0291 Y39.9572 
G01 X-29.0529 Y39.9492 
G01 X-29.0970 Y39.9437 
G01 X-29.1406 Y39.9350 
G01 X-29.1657 Y39.9350 
G01 X-29.1907 Y39.9318 
G01 X-29.2350 Y39.9350 
G01 X-29.6200 Y39.9350 
G00 Z1.0000 
G00 X-29.6200 Y42.4750 
G01 Z-0.1000 F254.00 
G01 X-29.7477 Y42.4496 F300.00 
G01 X-31.2123 Y42.4496 
G01 X-31.3534 Y42.4777 
G01 X-31.4864 Y42.5327 
G01 X-31.6060 Y42.6127 
G01 X-31.7077 Y42.7144 
G01 X-31.7877 Y42.8340 
G01 X-31.8427 Y42.9669 
G01 X-31.8708 Y43.1081 
G01 X-31.8708 Y43.2519 
G01 X-31.8427 Y43.3931 
G01 X-31.7877 Y43.5260 
G01 X-31.7077 Y43.6456 
G01 X-31.6060 Y43.7473 
G01 X-31.4864 Y43.8273 
G01 X-31.3534 Y43.8823 
G01 X-31.2123 Y43.9104 
G01 X-29.7477 Y43.9104 
G01 X-29.6200 Y43.8850 
G01 X-29.3244 Y43.8850 
G01 X-27.7598 Y44.4065 
G01 X-27.6764 Y44.4623 
G01 X-27.5434 Y44.5173 
G01 X-27.4023 Y44.5454 
G01 X-25.9377 Y44.5454 
G01 X-25.7965 Y44.5173 
G01 X-25.6636 Y44.4623 
G01 X-25.5440 Y44.3823 
G01 X-25.4423 Y44.2806 
G01 X-25.3623 Y44.1610 
G01 X-25.3073 Y44.0281 
G01 X-25.2792 Y43.8869 
G01 X-25.2792 Y43.7431 
G01 X-25.3073 Y43.6019 
G01 X-25.3623 Y43.4690 
G01 X-25.4423 Y43.3494 
G01 X-25.5440 Y43.2477 
G01 X-25.6636 Y43.1677 
G01 X-25.7965 Y43.1127 
G01 X-25.9377 Y43.0846 
G01 X-27.2668 Y43.0846 
G01 X-28.9633 Y42.5191 
G01 X-29.0044 Y42.5021 
G01 X-29.0291 Y42.4972 
G01 X-29.0529 Y42.4892 
G01 X-29.0970 Y42.4837 
G01 X-29.1406 Y42.4750 
G01 X-29.1657 Y42.4750 
G01 X-29.1907 Y42.4719 
G01 X-29.2350 Y42.4750 
G01 X-29.6200 Y42.4750 
G00 Z1.0000 
G00 X-29.6200 Y45.0150 
G01 Z-0.1000 F254.00 
G01 X-29.7477 Y44.9896 F300.00 
G01 X-31.2123 Y44.9896 
G01 X-31.3534 Y45.0177 
G01 X-31.4864 Y45.0727 
G01 X-31.6060 Y45.1527 
G01 X-31.7077 Y45.2544 
G01 X-31.7877 Y45.3740 
G01 X-31.8427 Y45.5069 
G01 X-31.8708 Y45.6481 
G01 X-31.8708 Y45.7919 
G01 X-31.8427 Y45.9331 
G01 X-31.7877 Y46.0660 
G01 X-31.7077 Y46.1856 
G01 X-31.6060 Y46.2873 
G01 X-31.4864 Y46.3673 
G01 X-31.3534 Y46.4223 
G01 X-31.2123 Y46.4504 
G01 X-29.7477 Y46.4504 
G01 X-29.6200 Y46.4250 
G01 X-29.3244 Y46.4250 
G01 X-27.7598 Y46.9465 
G01 X-27.6764 Y47.0023 
G01 X-27.5434 Y47.0573 
G01 X-27.4023 Y47.0854 
G01 X-25.9377 Y47.0854 
G01 X-25.7965 Y47.0573 
G01 X-25.6636 Y47.0023 
G01 X-25.5440 Y46.9223 
G01 X-25.4423 Y46.8206 
G01 X-25.3623 Y46.7010 
G01 X-25.3073 Y46.5680 
G01 X-25.2792 Y46.4269 
G01 X-25.2792 Y46.2831 
G01 X-25.3073 Y46.1419 
G01 X-25.3623 Y46.0090 
G01 X-25.4423 Y45.8894 
G01 X-25.5440 Y45.7877 
G01 X-25.6636 Y45.7077 
G01 X-25.7965 Y45.6527 
G01 X-25.9377 Y45.6246 
G01 X-27.2668 Y45.6246 
G01 X-28.9633 Y45.0591 
G01 X-29.0044 Y45.0421 
G01 X-29.0291 Y45.0372 
G01 X-29.0529 Y45.0292 
G01 X-29.0970 Y45.0237 
G01 X-29.1406 Y45.0150 
G01 X-29.1657 Y45.0150 
G01 X-29.1907 Y45.0119 
G01 X-29.2350 Y45.0150 
G01 X-29.6200 Y45.0150 
G00 Z1.0000 
G00 X-29.6200 Y47.5550 
G01 Z-0.1000 F254.00 
G01 X-29.7477 Y47.5296 F300.00 
G01 X-31.2123 Y47.5296 
G01 X-31.3534 Y47.5577 
G01 X-31.4864 Y47.6127 
G01 X-31.6060 Y47.6927 
G01 X-31.7077 Y47.7944 
G01 X-31.7877 Y47.9140 
G01 X-31.8427 Y48.0469 
G01 X-31.8708 Y48.1881 
G01 X-31.8708 Y48.3319 
G01 X-31.8427 Y48.4731 
G01 X-31.7877 Y48.6060 
G01 X-31.7077 Y48.7256 
G01 X-31.6060 Y48.8273 
G01 X-31.4864 Y48.9073 
G01 X-31.3534 Y48.9623 
G01 X-31.2123 Y48.9904 
G01 X-29.7477 Y48.9904 
G01 X-29.6200 Y48.9650 
G01 X-29.3244 Y48.9650 
G01 X-27.7598 Y49.4865 
G01 X-27.6764 Y49.5423 
G01 X-27.5434 Y49.5973 
G01 X-27.4023 Y49.6254 
G01 X-25.9377 Y49.6254 
G01 X-25.7965 Y49.5973 
G01 X-25.6636 Y49.5423 
G01 X-25.5440 Y49.4623 
G01 X-25.4423 Y49.3606 
G01 X-25.3623 Y49.2410 
G01 X-25.3073 Y49.1080 
G01 X-25.2792 Y48.9669 
G01 X-25.2792 Y48.8231 
G01 X-25.3073 Y48.6819 
G01 X-25.3623 Y48.5490 
G01 X-25.4423 Y48.4294 
G01 X-25.5440 Y48.3277 
G01 X-25.6636 Y48.2477 
G01 X-25.7965 Y48.1927 
G01 X-25.9377 Y48.1646 
G01 X-27.2668 Y48.1646 
G01 X-28.9633 Y47.5991 
G01 X-29.0044 Y47.5821 
G01 X-29.0291 Y47.5772 
G01 X-29.0529 Y47.5692 
G01 X-29.0970 Y47.5637 
G01 X-29.1406 Y47.5550 
G01 X-29.1657 Y47.5550 
G01 X-29.1907 Y47.5519 
G01 X-29.2350 Y47.5550 
G01 X-29.6200 Y47.5550 
G00 Z1.0000 
G00 X-29.6200 Y52.6350 
G01 Z-0.1000 F254.00 
G01 X-29.7477 Y52.6096 F300.00 
G01 X-31.2123 Y52.6096 
G01 X-31.3534 Y52.6377 
G01 X-31.4864 Y52.6927 
G01 X-31.6060 Y52.7727 
G01 X-31.7077 Y52.8744 
G01 X-31.7877 Y52.9940 
G01 X-31.8427 Y53.1269 
G01 X-31.8708 Y53.2681 
G01 X-31.8708 Y53.4119 
G01 X-31.8427 Y53.5530 
G01 X-31.7877 Y53.6860 
G01 X-31.7077 Y53.8056 
G01 X-31.6060 Y53.9073 
G01 X-31.4864 Y53.9873 
G01 X-31.3534 Y54.0423 
G01 X-31.2123 Y54.0704 
G01 X-29.7477 Y54.0704 
G01 X-29.6200 Y54.0450 
G01 X-29.3244 Y54.0450 
G01 X-27.7598 Y54.5665 
G01 X-27.6764 Y54.6223 
G01 X-27.5434 Y54.6773 
G01 X-27.4023 Y54.7054 
G01 X-25.9377 Y54.7054 
G01 X-25.7965 Y54.6773 
G01 X-25.6636 Y54.6223 
G01 X-25.5440 Y54.5423 
G01 X-25.4423 Y54.4406 
G01 X-25.3623 Y54.3210 
G01 X-25.3073 Y54.1880 
G01 X-25.2792 Y54.0469 
G01 X-25.2792 Y53.9031 
G01 X-25.3073 Y53.7619 
G01 X-25.3623 Y53.6290 
G01 X-25.4423 Y53.5094 
G01 X-25.5440 Y53.4077 
G01 X-25.6636 Y53.3277 
G01 X-25.7965 Y53.2727 
G01 X-25.9377 Y53.2446 
G01 X-27.2668 Y53.2446 
G01 X-28.9633 Y52.6791 
G01 X-29.0044 Y52.6621 
G01 X-29.0291 Y52.6572 
G01 X-29.0529 Y52.6492 
G01 X-29.0970 Y52.6437 
G01 X-29.1406 Y52.6350 
G01 X-29.1657 Y52.6350 
G01 X-29.1907 Y52.6319 
G01 X-29.2350 Y52.6350 
G01 X-29.6200 Y52.6350 
G00 Z1.0000 
G00 X-29.6200 Y55.1750 
G01 Z-0.1000 F254.00 
G01 X-29.7477 Y55.1496 F300.00 
G01 X-31.2123 Y55.1496 
G01 X-31.3534 Y55.1777 
G01 X-31.4864 Y55.2327 
G01 X-31.6060 Y55.3127 
G01 X-31.7077 Y55.4144 
G01 X-31.7877 Y55.5340 
G01 X-31.8427 Y55.6669 
G01 X-31.8708 Y55.8081 
G01 X-31.8708 Y55.9519 
G01 X-31.8427 Y56.0930 
G01 X-31.7877 Y56.2260 
G01 X-31.7077 Y56.3456 
G01 X-31.6060 Y56.4473 
G01 X-31.4864 Y56.5273 
G01 X-31.3534 Y56.5823 
G01 X-31.2123 Y56.6104 
G01 X-29.7477 Y56.6104 
G01 X-29.6200 Y56.5850 
G01 X-29.3244 Y56.5850 
G01 X-27.7598 Y57.1065 
G01 X-27.6764 Y57.1623 
G01 X-27.5434 Y57.2173 
G01 X-27.4023 Y57.2454 
G01 X-25.9377 Y57.2454 
G01 X-25.7965 Y57.2173 
G01 X-25.6636 Y57.1623 
G01 X-25.5440 Y57.0823 
G01 X-25.4423 Y56.9806 
G01 X-25.3623 Y56.8610 
G01 X-25.3073 Y56.7281 
G01 X-25.2792 Y56.5869 
G01 X-25.2792 Y56.4431 
G01 X-25.3073 Y56.3019 
G01 X-25.3623 Y56.1690 
G01 X-25.4423 Y56.0494 
G01 X-25.5440 Y55.9477 
G01 X-25.6636 Y55.8677 
G01 X-25.7965 Y55.8127 
G01 X-25.9377 Y55.7846 
G01 X-27.2668 Y55.7846 
G01 X-28.9633 Y55.2191 
G01 X-29.0044 Y55.2021 
G01 X-29.0291 Y55.1972 
G01 X-29.0529 Y55.1892 
G01 X-29.0970 Y55.1837 
G01 X-29.1406 Y55.1750 
G01 X-29.1657 Y55.1750 
G01 X-29.1907 Y55.1718 
G01 X-29.2350 Y55.1750 
G01 X-29.6200 Y55.1750 
G00 Z1.0000 
G00 X-29.6200 Y57.7150 
G01 Z-0.1000 F254.00 
G01 X-29.7477 Y57.6896 F300.00 
G01 X-31.2123 Y57.6896 
G01 X-31.3534 Y57.7177 
G01 X-31.4864 Y57.7727 
G01 X-31.6060 Y57.8527 
G01 X-31.7077 Y57.9544 
G01 X-31.7877 Y58.0740 
G01 X-31.8427 Y58.2069 
G01 X-31.8708 Y58.3481 
G01 X-31.8708 Y58.4919 
G01 X-31.8427 Y58.6330 
G01 X-31.7877 Y58.7660 
G01 X-31.7077 Y58.8856 
G01 X-31.6060 Y58.9873 
G01 X-31.4864 Y59.0673 
G01 X-31.3534 Y59.1223 
G01 X-31.2123 Y59.1504 
G01 X-29.7477 Y59.1504 
G01 X-29.6200 Y59.1250 
G01 X-29.3244 Y59.1250 
G01 X-27.7598 Y59.6465 
G01 X-27.6764 Y59.7023 
G01 X-27.5434 Y59.7573 
G01 X-27.4023 Y59.7854 
G01 X-25.9377 Y59.7854 
G01 X-25.7965 Y59.7573 
G01 X-25.6636 Y59.7023 
G01 X-25.5440 Y59.6223 
G01 X-25.4423 Y59.5206 
G01 X-25.3623 Y59.4010 
G01 X-25.3073 Y59.2681 
G01 X-25.2792 Y59.1269 
G01 X-25.2792 Y58.9831 
G01 X-25.3073 Y58.8419 
G01 X-25.3623 Y58.7090 
G01 X-25.4423 Y58.5894 
G01 X-25.5440 Y58.4877 
G01 X-25.6636 Y58.4077 
G01 X-25.7965 Y58.3527 
G01 X-25.9377 Y58.3246 
G01 X-27.2668 Y58.3246 
G01 X-28.9633 Y57.7591 
G01 X-29.0044 Y57.7421 
G01 X-29.0291 Y57.7372 
G01 X-29.0529 Y57.7292 
G01 X-29.0970 Y57.7237 
G01 X-29.1406 Y57.7150 
G01 X-29.1657 Y57.7150 
G01 X-29.1907 Y57.7118 
G01 X-29.2350 Y57.7150 
G01 X-29.6200 Y57.7150 
G00 Z1.0000 
G00 X-29.6200 Y60.2550 
G01 Z-0.1000 F254.00 
G01 X-29.7477 Y60.2296 F300.00 
G01 X-31.2123 Y60.2296 
G01 X-31.3534 Y60.2577 
G01 X-31.4864 Y60.3127 
G01 X-31.6060 Y60.3927 
G01 X-31.7077 Y60.4944 
G01 X-31.7877 Y60.6140 
G01 X-31.8427 Y60.7469 
G01 X-31.8708 Y60.8881 
G01 X-31.8708 Y61.0319 
G01 X-31.8427 Y61.1731 
G01 X-31.7877 Y61.3060 
G01 X-31.7077 Y61.4256 
G01 X-31.6060 Y61.5273 
G01 X-31.4864 Y61.6073 
G01 X-31.3534 Y61.6623 
G01 X-31.2123 Y61.6904 
G01 X-29.7477 Y61.6904 
G01 X-29.6200 Y61.6650 
G01 X-29.3244 Y61.6650 
G01 X-27.7598 Y62.1865 
G01 X-27.6764 Y62.2423 
G01 X-27.5434 Y62.2973 
G01 X-27.4023 Y62.3254 
G01 X-25.9377 Y62.3254 
G01 X-25.7965 Y62.2973 
G01 X-25.6636 Y62.2423 
G01 X-25.5440 Y62.1623 
G01 X-25.4423 Y62.0606 
G01 X-25.3623 Y61.9410 
G01 X-25.3073 Y61.8081 
G01 X-25.2792 Y61.6669 
G01 X-25.2792 Y61.5231 
G01 X-25.3073 Y61.3819 
G01 X-25.3623 Y61.2490 
G01 X-25.4423 Y61.1294 
G01 X-25.5440 Y61.0277 
G01 X-25.6636 Y60.9477 
G01 X-25.7965 Y60.8927 
G01 X-25.9377 Y60.8646 
G01 X-27.2668 Y60.8646 
G01 X-28.9633 Y60.2991 
G01 X-29.0044 Y60.2821 
G01 X-29.0291 Y60.2772 
G01 X-29.0529 Y60.2692 
G01 X-29.0970 Y60.2637 
G01 X-29.1406 Y60.2550 
G01 X-29.1657 Y60.2550 
G01 X-29.1907 Y60.2518 
G01 X-29.2350 Y60.2550 
G01 X-29.6200 Y60.2550 
G00 Z1.0000 
G00 X-29.6200 Y62.7950 
G01 Z-0.1000 F254.00 
G01 X-29.7477 Y62.7696 F300.00 
G01 X-31.2123 Y62.7696 
G01 X-31.3534 Y62.7977 
G01 X-31.4864 Y62.8527 
G01 X-31.6060 Y62.9327 
G01 X-31.7077 Y63.0344 
G01 X-31.7877 Y63.1540 
G01 X-31.8427 Y63.2869 
G01 X-31.8708 Y63.4281 
G01 X-31.8708 Y63.5719 
G01 X-31.8427 Y63.7131 
G01 X-31.7877 Y63.8460 
G01 X-31.7077 Y63.9656 
G01 X-31.6060 Y64.0673 
G01 X-31.4864 Y64.1473 
G01 X-31.3534 Y64.2023 
G01 X-31.2123 Y64.2304 
G01 X-29.7477 Y64.2304 
G01 X-29.6200 Y64.2050 
G01 X-29.3244 Y64.2050 
G01 X-27.7598 Y64.7265 
G01 X-27.6764 Y64.7823 
G01 X-27.5434 Y64.8373 
G01 X-27.4023 Y64.8654 
G01 X-25.9377 Y64.8654 
G01 X-25.7965 Y64.8373 
G01 X-25.6636 Y64.7823 
G01 X-25.5440 Y64.7023 
G01 X-25.4423 Y64.6006 
G01 X-25.3623 Y64.4810 
G01 X-25.3073 Y64.3481 
G01 X-25.2792 Y64.2069 
G01 X-25.2792 Y64.0631 
G01 X-25.3073 Y63.9219 
G01 X-25.3623 Y63.7890 
G01 X-25.4423 Y63.6694 
G01 X-25.5440 Y63.5677 
G01 X-25.6636 Y63.4877 
G01 X-25.7965 Y63.4327 
G01 X-25.9377 Y63.4046 
G01 X-27.2668 Y63.4046 
G01 X-28.9633 Y62.8391 
G01 X-29.0044 Y62.8221 
G01 X-29.0291 Y62.8172 
G01 X-29.0529 Y62.8092 
G01 X-29.0970 Y62.8037 
G01 X-29.1406 Y62.7950 
G01 X-29.1657 Y62.7950 
G01 X-29.1907 Y62.7918 
G01 X-29.2350 Y62.7950 
G01 X-29.6200 Y62.7950 
G00 Z1.0000 
G00 X-35.7186 Y65.4677 
G01 Z-0.1000 F254.00 
G01 X-35.7186 Y50.7373 F300.00 
G01 X-35.7511 Y50.6161 
G01 X-35.8138 Y50.5075 
G01 X-38.9888 Y47.3325 
G01 X-39.0775 Y47.2438 
G01 X-39.1861 Y47.1811 
G01 X-39.3073 Y47.1486 
G01 X-42.7852 Y47.1486 
G01 X-44.5711 Y46.5533 
G01 X-44.5836 Y46.5461 
G01 X-44.6304 Y46.5335 
G01 X-44.6763 Y46.5182 
G01 X-44.6908 Y46.5173 
G01 X-44.7048 Y46.5136 
G01 X-44.7532 Y46.5136 
G01 X-44.8016 Y46.5107 
G01 X-44.8157 Y46.5136 
G01 X-49.0536 Y46.5136 
G01 X-49.0536 Y44.3873 
G01 X-49.0861 Y44.2661 
G01 X-49.1488 Y44.1575 
G01 X-49.2375 Y44.0688 
G01 X-53.5938 Y39.7125 
G01 X-53.6825 Y39.6238 
G01 X-53.7911 Y39.5611 
G01 X-53.9123 Y39.5286 
G01 X-58.8577 Y39.5286 
G01 X-62.6159 Y35.7704 
G01 X-62.5918 Y35.6495 
G01 X-62.5918 Y35.4705 
G01 X-62.6267 Y35.2951 
G01 X-62.6952 Y35.1298 
G01 X-62.7946 Y34.9811 
G01 X-62.9211 Y34.8546 
G01 X-63.0698 Y34.7552 
G01 X-63.2351 Y34.6867 
G01 X-63.4105 Y34.6518 
G01 X-63.5894 Y34.6518 
G01 X-63.7649 Y34.6867 
G01 X-63.9302 Y34.7552 
G01 X-64.0789 Y34.8546 
G01 X-64.2054 Y34.9811 
G01 X-64.3048 Y35.1298 
G01 X-64.3733 Y35.2951 
G01 X-64.4082 Y35.4705 
G01 X-64.4082 Y35.6495 
G01 X-64.3733 Y35.8249 
G01 X-64.3048 Y35.9902 
G01 X-64.2054 Y36.1389 
G01 X-64.0789 Y36.2654 
G01 X-63.9302 Y36.3648 
G01 X-63.7649 Y36.4333 
G01 X-63.5894 Y36.4682 
G01 X-63.4105 Y36.4682 
G01 X-63.2896 Y36.4441 
G01 X-59.3475 Y40.3862 
G01 X-59.2389 Y40.4489 
G01 X-59.1177 Y40.4814 
G01 X-54.1723 Y40.4814 
G01 X-50.0064 Y44.6473 
G01 X-50.0064 Y46.5136 
G01 X-52.1231 Y46.5136 
G01 X-52.2140 Y46.4227 
G01 X-52.3336 Y46.3427 
G01 X-52.4665 Y46.2877 
G01 X-52.6077 Y46.2596 
G01 X-54.0723 Y46.2596 
G01 X-54.2135 Y46.2877 
G01 X-54.3464 Y46.3427 
G01 X-54.4660 Y46.4227 
G01 X-54.5569 Y46.5136 
G01 X-55.6827 Y46.5136 
G01 X-58.1275 Y44.0688 
G01 X-58.2361 Y44.0061 
G01 X-58.3573 Y43.9736 
G01 X-59.7431 Y43.9736 
G01 X-59.8340 Y43.8827 
G01 X-59.9536 Y43.8027 
G01 X-60.0865 Y43.7477 
G01 X-60.2277 Y43.7196 
G01 X-61.6923 Y43.7196 
G01 X-61.8334 Y43.7477 
G01 X-61.9664 Y43.8027 
G01 X-62.0860 Y43.8827 
G01 X-62.1877 Y43.9844 
G01 X-62.2677 Y44.1040 
G01 X-62.3227 Y44.2369 
G01 X-62.3508 Y44.3781 
G01 X-62.3508 Y44.5219 
G01 X-62.3227 Y44.6630 
G01 X-62.2677 Y44.7960 
G01 X-62.1877 Y44.9156 
G01 X-62.0860 Y45.0173 
G01 X-61.9664 Y45.0973 
G01 X-61.8334 Y45.1523 
G01 X-61.6923 Y45.1804 
G01 X-60.2277 Y45.1804 
G01 X-60.0865 Y45.1523 
G01 X-59.9536 Y45.0973 
G01 X-59.8340 Y45.0173 
G01 X-59.7431 Y44.9264 
G01 X-58.6173 Y44.9264 
G01 X-56.2612 Y47.2825 
G01 X-56.1725 Y47.3712 
G01 X-56.0639 Y47.4339 
G01 X-55.9427 Y47.4664 
G01 X-54.5569 Y47.4664 
G01 X-54.4660 Y47.5573 
G01 X-54.3464 Y47.6373 
G01 X-54.2135 Y47.6923 
G01 X-54.0723 Y47.7204 
G01 X-52.6077 Y47.7204 
G01 X-52.4665 Y47.6923 
G01 X-52.3336 Y47.6373 
G01 X-52.2140 Y47.5573 
G01 X-52.1231 Y47.4664 
G01 X-44.8448 Y47.4664 
G01 X-43.0589 Y48.0617 
G01 X-43.0464 Y48.0689 
G01 X-42.9996 Y48.0815 
G01 X-42.9537 Y48.0968 
G01 X-42.9392 Y48.0977 
G01 X-42.9252 Y48.1014 
G01 X-42.8768 Y48.1014 
G01 X-42.8284 Y48.1043 
G01 X-42.8143 Y48.1014 
G01 X-39.5673 Y48.1014 
G01 X-36.6714 Y50.9973 
G01 X-36.6714 Y65.2077 
G01 X-38.2973 Y66.8336 
G01 X-83.6227 Y66.8336 
G01 X-85.4325 Y65.0238 
G01 X-85.5411 Y64.9611 
G01 X-85.6623 Y64.9286 
G01 X-88.9785 Y64.9286 
G01 X-89.2325 Y64.6746 
G01 X-89.8375 Y64.6746 
G01 X-90.2654 Y65.1025 
G01 X-90.2654 Y65.7075 
G01 X-89.8375 Y66.1354 
G01 X-89.2325 Y66.1354 
G01 X-88.9785 Y65.8814 
G01 X-85.9223 Y65.8814 
G01 X-84.2964 Y67.5073 
G01 X-84.2964 Y71.1985 
G01 X-84.5504 Y71.4525 
G01 X-84.5504 Y72.0575 
G01 X-84.1225 Y72.4854 
G01 X-83.5175 Y72.4854 
G01 X-83.0896 Y72.0575 
G01 X-83.0896 Y71.4525 
G01 X-83.3436 Y71.1985 
G01 X-83.3436 Y67.7864 
G01 X-69.0564 Y67.7864 
G01 X-69.0564 Y71.1985 
G01 X-69.3104 Y71.4525 
G01 X-69.3104 Y72.0575 
G01 X-68.8825 Y72.4854 
G01 X-68.2775 Y72.4854 
G01 X-67.8496 Y72.0575 
G01 X-67.8496 Y71.4525 
G01 X-68.1036 Y71.1985 
G01 X-68.1036 Y67.7864 
G01 X-38.0373 Y67.7864 
G01 X-37.9161 Y67.7539 
G01 X-37.8075 Y67.6912 
G01 X-35.9025 Y65.7862 
G01 X-35.8138 Y65.6975 
G01 X-35.7511 Y65.5889 
G01 X-35.7186 Y65.4677 
G00 Z1.0000 
G00 X-40.7840 Y64.7023 
G01 Z-0.1000 F254.00 
G01 X-40.6823 Y64.6006 F300.00 
G01 X-40.6023 Y64.4810 
G01 X-40.5473 Y64.3481 
G01 X-40.5192 Y64.2069 
G01 X-40.5192 Y64.0631 
G01 X-40.5473 Y63.9219 
G01 X-40.6023 Y63.7890 
G01 X-40.6823 Y63.6694 
G01 X-40.7840 Y63.5677 
G01 X-40.9036 Y63.4877 
G01 X-41.0365 Y63.4327 
G01 X-41.1777 Y63.4046 
G01 X-42.5068 Y63.4046 
G01 X-44.2033 Y62.8391 
G01 X-44.2444 Y62.8221 
G01 X-44.2691 Y62.8172 
G01 X-44.2929 Y62.8092 
G01 X-44.3370 Y62.8037 
G01 X-44.3806 Y62.7950 
G01 X-44.4057 Y62.7950 
G01 X-44.4307 Y62.7918 
G01 X-44.4750 Y62.7950 
G01 X-44.8600 Y62.7950 
G01 X-44.9877 Y62.7696 
G01 X-46.4523 Y62.7696 
G01 X-46.5934 Y62.7977 
G01 X-46.7264 Y62.8527 
G01 X-46.8460 Y62.9327 
G01 X-46.9477 Y63.0344 
G01 X-47.0277 Y63.1540 
G01 X-47.0827 Y63.2869 
G01 X-47.1108 Y63.4281 
G01 X-47.1108 Y63.5719 
G01 X-47.0827 Y63.7131 
G01 X-47.0277 Y63.8460 
G01 X-46.9477 Y63.9656 
G01 X-46.8460 Y64.0673 
G01 X-46.7264 Y64.1473 
G01 X-46.5934 Y64.2023 
G01 X-46.4523 Y64.2304 
G01 X-44.9877 Y64.2304 
G01 X-44.8600 Y64.2050 
G01 X-44.5644 Y64.2050 
G01 X-42.9998 Y64.7265 
G01 X-42.9164 Y64.7823 
G01 X-42.7835 Y64.8373 
G01 X-42.6423 Y64.8654 
G01 X-41.1777 Y64.8654 
G01 X-41.0365 Y64.8373 
G01 X-40.9036 Y64.7823 
G01 X-40.7840 Y64.7023 
G00 Z1.0000 
G00 X-40.7840 Y62.1623 
G01 Z-0.1000 F254.00 
G01 X-40.6823 Y62.0606 F300.00 
G01 X-40.6023 Y61.9410 
G01 X-40.5473 Y61.8081 
G01 X-40.5192 Y61.6669 
G01 X-40.5192 Y61.5231 
G01 X-40.5473 Y61.3819 
G01 X-40.6023 Y61.2490 
G01 X-40.6823 Y61.1294 
G01 X-40.7840 Y61.0277 
G01 X-40.9036 Y60.9477 
G01 X-41.0365 Y60.8927 
G01 X-41.1777 Y60.8646 
G01 X-42.5068 Y60.8646 
G01 X-44.2033 Y60.2991 
G01 X-44.2444 Y60.2821 
G01 X-44.2691 Y60.2772 
G01 X-44.2929 Y60.2692 
G01 X-44.3370 Y60.2637 
G01 X-44.3806 Y60.2550 
G01 X-44.4057 Y60.2550 
G01 X-44.4307 Y60.2518 
G01 X-44.4750 Y60.2550 
G01 X-44.8600 Y60.2550 
G01 X-44.9877 Y60.2296 
G01 X-46.4523 Y60.2296 
G01 X-46.5934 Y60.2577 
G01 X-46.7264 Y60.3127 
G01 X-46.8460 Y60.3927 
G01 X-46.9477 Y60.4944 
G01 X-47.0277 Y60.6140 
G01 X-47.0827 Y60.7469 
G01 X-47.1108 Y60.8881 
G01 X-47.1108 Y61.0319 
G01 X-47.0827 Y61.1731 
G01 X-47.0277 Y61.3060 
G01 X-46.9477 Y61.4256 
G01 X-46.8460 Y61.5273 
G01 X-46.7264 Y61.6073 
G01 X-46.5934 Y61.6623 
G01 X-46.4523 Y61.6904 
G01 X-44.9877 Y61.6904 
G01 X-44.8600 Y61.6650 
G01 X-44.5644 Y61.6650 
G01 X-42.9998 Y62.1865 
G01 X-42.9164 Y62.2423 
G01 X-42.7835 Y62.2973 
G01 X-42.6423 Y62.3254 
G01 X-41.1777 Y62.3254 
G01 X-41.0365 Y62.2973 
G01 X-40.9036 Y62.2423 
G01 X-40.7840 Y62.1623 
G00 Z1.0000 
G00 X-40.7840 Y59.6223 
G01 Z-0.1000 F254.00 
G01 X-40.6823 Y59.5206 F300.00 
G01 X-40.6023 Y59.4010 
G01 X-40.5473 Y59.2681 
G01 X-40.5192 Y59.1269 
G01 X-40.5192 Y58.9831 
G01 X-40.5473 Y58.8419 
G01 X-40.6023 Y58.7090 
G01 X-40.6823 Y58.5894 
G01 X-40.7840 Y58.4877 
G01 X-40.9036 Y58.4077 
G01 X-41.0365 Y58.3527 
G01 X-41.1777 Y58.3246 
G01 X-42.5068 Y58.3246 
G01 X-44.2033 Y57.7591 
G01 X-44.2444 Y57.7421 
G01 X-44.2691 Y57.7372 
G01 X-44.2929 Y57.7292 
G01 X-44.3370 Y57.7237 
G01 X-44.3806 Y57.7150 
G01 X-44.4057 Y57.7150 
G01 X-44.4307 Y57.7118 
G01 X-44.4750 Y57.7150 
G01 X-44.8600 Y57.7150 
G01 X-44.9877 Y57.6896 
G01 X-46.4523 Y57.6896 
G01 X-46.5934 Y57.7177 
G01 X-46.7264 Y57.7727 
G01 X-46.8460 Y57.8527 
G01 X-46.9477 Y57.9544 
G01 X-47.0277 Y58.0740 
G01 X-47.0827 Y58.2069 
G01 X-47.1108 Y58.3481 
G01 X-47.1108 Y58.4919 
G01 X-47.0827 Y58.6330 
G01 X-47.0277 Y58.7660 
G01 X-46.9477 Y58.8856 
G01 X-46.8460 Y58.9873 
G01 X-46.7264 Y59.0673 
G01 X-46.5934 Y59.1223 
G01 X-46.4523 Y59.1504 
G01 X-44.9877 Y59.1504 
G01 X-44.8600 Y59.1250 
G01 X-44.5644 Y59.1250 
G01 X-42.9998 Y59.6465 
G01 X-42.9164 Y59.7023 
G01 X-42.7835 Y59.7573 
G01 X-42.6423 Y59.7854 
G01 X-41.1777 Y59.7854 
G01 X-41.0365 Y59.7573 
G01 X-40.9036 Y59.7023 
G01 X-40.7840 Y59.6223 
G00 Z1.0000 
G00 X-40.7840 Y57.0823 
G01 Z-0.1000 F254.00 
G01 X-40.6823 Y56.9806 F300.00 
G01 X-40.6023 Y56.8610 
G01 X-40.5473 Y56.7281 
G01 X-40.5192 Y56.5869 
G01 X-40.5192 Y56.4431 
G01 X-40.5473 Y56.3019 
G01 X-40.6023 Y56.1690 
G01 X-40.6823 Y56.0494 
G01 X-40.7840 Y55.9477 
G01 X-40.9036 Y55.8677 
G01 X-41.0365 Y55.8127 
G01 X-41.1777 Y55.7846 
G01 X-42.5068 Y55.7846 
G01 X-44.2033 Y55.2191 
G01 X-44.2444 Y55.2021 
G01 X-44.2691 Y55.1972 
G01 X-44.2929 Y55.1892 
G01 X-44.3370 Y55.1837 
G01 X-44.3806 Y55.1750 
G01 X-44.4057 Y55.1750 
G01 X-44.4307 Y55.1718 
G01 X-44.4750 Y55.1750 
G01 X-44.8600 Y55.1750 
G01 X-44.9877 Y55.1496 
G01 X-46.4523 Y55.1496 
G01 X-46.5934 Y55.1777 
G01 X-46.7264 Y55.2327 
G01 X-46.8460 Y55.3127 
G01 X-46.9477 Y55.4144 
G01 X-47.0277 Y55.5340 
G01 X-47.0827 Y55.6669 
G01 X-47.1108 Y55.8081 
G01 X-47.1108 Y55.9519 
G01 X-47.0827 Y56.0930 
G01 X-47.0277 Y56.2260 
G01 X-46.9477 Y56.3456 
G01 X-46.8460 Y56.4473 
G01 X-46.7264 Y56.5273 
G01 X-46.5934 Y56.5823 
G01 X-46.4523 Y56.6104 
G01 X-44.9877 Y56.6104 
G01 X-44.8600 Y56.5850 
G01 X-44.5644 Y56.5850 
G01 X-42.9998 Y57.1065 
G01 X-42.9164 Y57.1623 
G01 X-42.7835 Y57.2173 
G01 X-42.6423 Y57.2454 
G01 X-41.1777 Y57.2454 
G01 X-41.0365 Y57.2173 
G01 X-40.9036 Y57.1623 
G01 X-40.7840 Y57.0823 
G00 Z1.0000 
G00 X-40.7840 Y54.5423 
G01 Z-0.1000 F254.00 
G01 X-40.6823 Y54.4406 F300.00 
G01 X-40.6023 Y54.3210 
G01 X-40.5473 Y54.1880 
G01 X-40.5192 Y54.0469 
G01 X-40.5192 Y53.9031 
G01 X-40.5473 Y53.7619 
G01 X-40.6023 Y53.6290 
G01 X-40.6823 Y53.5094 
G01 X-40.7840 Y53.4077 
G01 X-40.9036 Y53.3277 
G01 X-41.0365 Y53.2727 
G01 X-41.1777 Y53.2446 
G01 X-42.6423 Y53.2446 
G01 X-42.7835 Y53.2727 
G01 X-42.9164 Y53.3277 
G01 X-43.0360 Y53.4077 
G01 X-43.1377 Y53.5094 
G01 X-43.2177 Y53.6290 
G01 X-43.2727 Y53.7619 
G01 X-43.3008 Y53.9031 
G01 X-43.3008 Y54.0469 
G01 X-43.2991 Y54.0554 
G01 X-43.3773 Y54.1336 
G01 X-47.0527 Y54.1336 
G01 X-47.1739 Y54.1661 
G01 X-47.2825 Y54.2288 
G01 X-48.5525 Y55.4988 
G01 X-48.6412 Y55.5875 
G01 X-48.7039 Y55.6961 
G01 X-48.7364 Y55.8173 
G01 X-48.7364 Y60.7627 
G01 X-49.7273 Y61.7536 
G01 X-52.1231 Y61.7536 
G01 X-52.2140 Y61.6627 
G01 X-52.3336 Y61.5827 
G01 X-52.4665 Y61.5277 
G01 X-52.6077 Y61.4996 
G01 X-54.0723 Y61.4996 
G01 X-54.2135 Y61.5277 
G01 X-54.3464 Y61.5827 
G01 X-54.4660 Y61.6627 
G01 X-54.5569 Y61.7536 
G01 X-55.6827 Y61.7536 
G01 X-56.7688 Y60.6675 
G01 X-56.8575 Y60.5788 
G01 X-56.9661 Y60.5161 
G01 X-57.0873 Y60.4836 
G01 X-64.8327 Y60.4836 
G01 X-64.9539 Y60.5161 
G01 X-65.0625 Y60.5788 
G01 X-66.2373 Y61.7536 
G01 X-71.1731 Y61.7536 
G01 X-71.2640 Y61.6627 
G01 X-71.3836 Y61.5827 
G01 X-71.5165 Y61.5277 
G01 X-71.6577 Y61.4996 
G01 X-73.1223 Y61.4996 
G01 X-73.2635 Y61.5277 
G01 X-73.3964 Y61.5827 
G01 X-73.5160 Y61.6627 
G01 X-73.6177 Y61.7644 
G01 X-73.6977 Y61.8840 
G01 X-73.7527 Y62.0169 
G01 X-73.7808 Y62.1581 
G01 X-73.7808 Y62.3019 
G01 X-73.7527 Y62.4430 
G01 X-73.6977 Y62.5760 
G01 X-73.6177 Y62.6956 
G01 X-73.5160 Y62.7973 
G01 X-73.3964 Y62.8773 
G01 X-73.2635 Y62.9323 
G01 X-73.1223 Y62.9604 
G01 X-71.6577 Y62.9604 
G01 X-71.5165 Y62.9323 
G01 X-71.3836 Y62.8773 
G01 X-71.2640 Y62.7973 
G01 X-71.1731 Y62.7064 
G01 X-65.9773 Y62.7064 
G01 X-65.8561 Y62.6739 
G01 X-65.7475 Y62.6112 
G01 X-65.6588 Y62.5225 
G01 X-64.5727 Y61.4364 
G01 X-57.3473 Y61.4364 
G01 X-56.1725 Y62.6112 
G01 X-56.0639 Y62.6739 
G01 X-55.9427 Y62.7064 
G01 X-54.5569 Y62.7064 
G01 X-54.4660 Y62.7973 
G01 X-54.3464 Y62.8773 
G01 X-54.2135 Y62.9323 
G01 X-54.0723 Y62.9604 
G01 X-52.6077 Y62.9604 
G01 X-52.4665 Y62.9323 
G01 X-52.3336 Y62.8773 
G01 X-52.2140 Y62.7973 
G01 X-52.1231 Y62.7064 
G01 X-49.4673 Y62.7064 
G01 X-49.3461 Y62.6739 
G01 X-49.2375 Y62.6112 
G01 X-49.1488 Y62.5225 
G01 X-47.8788 Y61.2525 
G01 X-47.8161 Y61.1439 
G01 X-47.7836 Y61.0227 
G01 X-47.7836 Y56.0773 
G01 X-46.7927 Y55.0864 
G01 X-43.1173 Y55.0864 
G01 X-42.9961 Y55.0539 
G01 X-42.8875 Y54.9912 
G01 X-42.7988 Y54.9025 
G01 X-42.6017 Y54.7054 
G01 X-41.1777 Y54.7054 
G01 X-41.0365 Y54.6773 
G01 X-40.9036 Y54.6223 
G01 X-40.7840 Y54.5423 
G00 Z1.0000 
G00 X-40.7840 Y52.0023 
G01 Z-0.1000 F254.00 
G01 X-40.6823 Y51.9006 F300.00 
G01 X-40.6023 Y51.7810 
G01 X-40.5473 Y51.6480 
G01 X-40.5192 Y51.5069 
G01 X-40.5192 Y51.3631 
G01 X-40.5473 Y51.2219 
G01 X-40.6023 Y51.0890 
G01 X-40.6823 Y50.9694 
G01 X-40.7840 Y50.8677 
G01 X-40.9036 Y50.7877 
G01 X-41.0365 Y50.7327 
G01 X-41.1777 Y50.7046 
G01 X-42.6423 Y50.7046 
G01 X-42.7835 Y50.7327 
G01 X-42.9164 Y50.7877 
G01 X-43.0360 Y50.8677 
G01 X-43.1377 Y50.9694 
G01 X-43.2177 Y51.0890 
G01 X-43.2727 Y51.2219 
G01 X-43.3008 Y51.3631 
G01 X-43.3008 Y51.5069 
G01 X-43.2991 Y51.5154 
G01 X-43.3773 Y51.5936 
G01 X-48.3227 Y51.5936 
G01 X-48.4439 Y51.6261 
G01 X-48.5525 Y51.6888 
G01 X-51.7275 Y54.8638 
G01 X-51.8162 Y54.9525 
G01 X-51.8789 Y55.0611 
G01 X-51.9114 Y55.1823 
G01 X-51.9114 Y56.3177 
G01 X-52.1952 Y56.6015 
G01 X-52.2140 Y56.5827 
G01 X-52.3336 Y56.5027 
G01 X-52.4665 Y56.4477 
G01 X-52.6077 Y56.4196 
G01 X-54.0723 Y56.4196 
G01 X-54.2135 Y56.4477 
G01 X-54.3464 Y56.5027 
G01 X-54.4660 Y56.5827 
G01 X-54.5569 Y56.6736 
G01 X-55.9427 Y56.6736 
G01 X-56.0639 Y56.7061 
G01 X-56.1725 Y56.7688 
G01 X-57.3473 Y57.9436 
G01 X-63.9377 Y57.9436 
G01 X-65.0238 Y56.8575 
G01 X-65.1125 Y56.7688 
G01 X-65.2211 Y56.7061 
G01 X-65.3423 Y56.6736 
G01 X-66.2898 Y56.6736 
G01 X-66.1539 Y56.6173 
G01 X-66.0176 Y56.5263 
G01 X-65.9017 Y56.4104 
G01 X-65.8657 Y56.3564 
G01 X-64.3323 Y56.3564 
G01 X-63.1575 Y57.5312 
G01 X-63.0489 Y57.5939 
G01 X-62.9277 Y57.6264 
G01 X-62.1769 Y57.6264 
G01 X-62.0860 Y57.7173 
G01 X-61.9664 Y57.7973 
G01 X-61.8334 Y57.8523 
G01 X-61.6923 Y57.8804 
G01 X-60.2277 Y57.8804 
G01 X-60.0865 Y57.8523 
G01 X-59.9536 Y57.7973 
G01 X-59.8340 Y57.7173 
G01 X-59.7323 Y57.6156 
G01 X-59.6523 Y57.4960 
G01 X-59.5973 Y57.3631 
G01 X-59.5692 Y57.2219 
G01 X-59.5692 Y57.0781 
G01 X-59.5973 Y56.9369 
G01 X-59.6523 Y56.8040 
G01 X-59.7323 Y56.6844 
G01 X-59.8340 Y56.5827 
G01 X-59.9536 Y56.5027 
G01 X-60.0865 Y56.4477 
G01 X-60.2277 Y56.4196 
G01 X-61.6923 Y56.4196 
G01 X-61.8334 Y56.4477 
G01 X-61.9664 Y56.5027 
G01 X-62.0860 Y56.5827 
G01 X-62.1769 Y56.6736 
G01 X-62.6677 Y56.6736 
G01 X-63.7538 Y55.5875 
G01 X-63.8425 Y55.4988 
G01 X-63.9511 Y55.4361 
G01 X-64.0723 Y55.4036 
G01 X-65.8657 Y55.4036 
G01 X-65.9017 Y55.3496 
G01 X-66.0176 Y55.2337 
G01 X-66.1539 Y55.1427 
G01 X-66.3053 Y55.0800 
G01 X-66.4661 Y55.0480 
G01 X-68.1539 Y55.0480 
G01 X-68.3147 Y55.0800 
G01 X-68.4661 Y55.1427 
G01 X-68.6024 Y55.2337 
G01 X-68.7183 Y55.3496 
G01 X-68.8093 Y55.4859 
G01 X-68.8720 Y55.6373 
G01 X-68.9040 Y55.7981 
G01 X-68.9040 Y55.9619 
G01 X-68.8720 Y56.1227 
G01 X-68.8093 Y56.2741 
G01 X-68.7183 Y56.4104 
G01 X-68.6024 Y56.5263 
G01 X-68.4661 Y56.6173 
G01 X-68.3302 Y56.6736 
G01 X-71.1731 Y56.6736 
G01 X-71.2640 Y56.5827 
G01 X-71.3836 Y56.5027 
G01 X-71.5165 Y56.4477 
G01 X-71.6577 Y56.4196 
G01 X-73.1223 Y56.4196 
G01 X-73.2635 Y56.4477 
G01 X-73.3964 Y56.5027 
G01 X-73.5160 Y56.5827 
G01 X-73.6177 Y56.6844 
G01 X-73.6977 Y56.8040 
G01 X-73.7527 Y56.9369 
G01 X-73.7808 Y57.0781 
G01 X-73.7808 Y57.2219 
G01 X-73.7527 Y57.3631 
G01 X-73.6977 Y57.4960 
G01 X-73.6177 Y57.6156 
G01 X-73.5160 Y57.7173 
G01 X-73.3964 Y57.7973 
G01 X-73.2635 Y57.8523 
G01 X-73.1223 Y57.8804 
G01 X-71.6577 Y57.8804 
G01 X-71.5165 Y57.8523 
G01 X-71.3836 Y57.7973 
G01 X-71.2640 Y57.7173 
G01 X-71.1731 Y57.6264 
G01 X-68.3302 Y57.6264 
G01 X-68.4661 Y57.6827 
G01 X-68.6024 Y57.7737 
G01 X-68.7183 Y57.8896 
G01 X-68.8093 Y58.0259 
G01 X-68.8720 Y58.1773 
G01 X-68.9040 Y58.3381 
G01 X-68.9040 Y58.5019 
G01 X-68.8720 Y58.6627 
G01 X-68.8093 Y58.8141 
G01 X-68.7183 Y58.9504 
G01 X-68.6024 Y59.0663 
G01 X-68.4661 Y59.1573 
G01 X-68.3147 Y59.2200 
G01 X-68.1539 Y59.2520 
G01 X-66.5167 Y59.2520 
G01 X-66.0787 Y59.6900 
G01 X-66.8723 Y60.4836 
G01 X-75.3677 Y60.4836 
G01 X-76.4538 Y59.3975 
G01 X-76.5425 Y59.3088 
G01 X-76.6511 Y59.2461 
G01 X-76.7723 Y59.2136 
G01 X-78.7931 Y59.2136 
G01 X-78.8840 Y59.1227 
G01 X-79.0036 Y59.0427 
G01 X-79.1365 Y58.9877 
G01 X-79.2777 Y58.9596 
G01 X-80.7423 Y58.9596 
G01 X-80.8834 Y58.9877 
G01 X-81.0164 Y59.0427 
G01 X-81.1360 Y59.1227 
G01 X-81.2377 Y59.2244 
G01 X-81.3177 Y59.3440 
G01 X-81.3727 Y59.4769 
G01 X-81.4008 Y59.6181 
G01 X-81.4008 Y59.7619 
G01 X-81.3727 Y59.9031 
G01 X-81.3177 Y60.0360 
G01 X-81.2377 Y60.1556 
G01 X-81.1360 Y60.2573 
G01 X-81.0164 Y60.3373 
G01 X-80.8834 Y60.3923 
G01 X-80.7423 Y60.4204 
G01 X-79.2777 Y60.4204 
G01 X-79.1365 Y60.3923 
G01 X-79.0036 Y60.3373 
G01 X-78.8840 Y60.2573 
G01 X-78.7931 Y60.1664 
G01 X-77.0323 Y60.1664 
G01 X-75.8575 Y61.3412 
G01 X-75.7489 Y61.4039 
G01 X-75.6277 Y61.4364 
G01 X-66.6123 Y61.4364 
G01 X-66.4911 Y61.4039 
G01 X-66.3825 Y61.3412 
G01 X-66.2938 Y61.2525 
G01 X-65.2077 Y60.1664 
G01 X-62.1769 Y60.1664 
G01 X-62.0860 Y60.2573 
G01 X-61.9664 Y60.3373 
G01 X-61.8334 Y60.3923 
G01 X-61.6923 Y60.4204 
G01 X-60.2277 Y60.4204 
G01 X-60.0865 Y60.3923 
G01 X-59.9536 Y60.3373 
G01 X-59.8340 Y60.2573 
G01 X-59.7323 Y60.1556 
G01 X-59.6523 Y60.0360 
G01 X-59.5973 Y59.9031 
G01 X-59.5692 Y59.7619 
G01 X-59.5692 Y59.6181 
G01 X-59.5973 Y59.4769 
G01 X-59.6523 Y59.3440 
G01 X-59.7323 Y59.2244 
G01 X-59.8340 Y59.1227 
G01 X-59.9536 Y59.0427 
G01 X-60.0865 Y58.9877 
G01 X-60.2277 Y58.9596 
G01 X-61.6923 Y58.9596 
G01 X-61.8334 Y58.9877 
G01 X-61.9664 Y59.0427 
G01 X-62.0860 Y59.1227 
G01 X-62.1769 Y59.2136 
G01 X-65.2077 Y59.2136 
G01 X-65.7511 Y58.6702 
G01 X-65.7480 Y58.6627 
G01 X-65.7160 Y58.5019 
G01 X-65.7160 Y58.3381 
G01 X-65.7480 Y58.1773 
G01 X-65.8107 Y58.0259 
G01 X-65.9017 Y57.8896 
G01 X-66.0176 Y57.7737 
G01 X-66.1539 Y57.6827 
G01 X-66.2898 Y57.6264 
G01 X-65.6023 Y57.6264 
G01 X-64.4275 Y58.8012 
G01 X-64.3189 Y58.8639 
G01 X-64.1977 Y58.8964 
G01 X-57.0873 Y58.8964 
G01 X-56.9661 Y58.8639 
G01 X-56.8575 Y58.8012 
G01 X-56.7688 Y58.7125 
G01 X-55.6827 Y57.6264 
G01 X-54.5569 Y57.6264 
G01 X-54.4660 Y57.7173 
G01 X-54.3464 Y57.7973 
G01 X-54.2135 Y57.8523 
G01 X-54.0723 Y57.8804 
G01 X-52.6077 Y57.8804 
G01 X-52.4665 Y57.8523 
G01 X-52.3336 Y57.7973 
G01 X-52.2140 Y57.7173 
G01 X-52.1231 Y57.6264 
G01 X-52.0073 Y57.6264 
G01 X-51.8861 Y57.5939 
G01 X-51.7775 Y57.5312 
G01 X-51.6888 Y57.4425 
G01 X-51.0538 Y56.8075 
G01 X-50.9911 Y56.6989 
G01 X-50.9586 Y56.5777 
G01 X-50.9586 Y55.4423 
G01 X-48.0627 Y52.5464 
G01 X-43.1173 Y52.5464 
G01 X-42.9961 Y52.5139 
G01 X-42.8875 Y52.4512 
G01 X-42.7988 Y52.3625 
G01 X-42.6017 Y52.1654 
G01 X-41.1777 Y52.1654 
G01 X-41.0365 Y52.1373 
G01 X-40.9036 Y52.0823 
G01 X-40.7840 Y52.0023 
G00 Z1.0000 
G00 X-40.7840 Y49.4623 
G01 Z-0.1000 F254.00 
G01 X-40.6823 Y49.3606 F300.00 
G01 X-40.6023 Y49.2410 
G01 X-40.5473 Y49.1080 
G01 X-40.5192 Y48.9669 
G01 X-40.5192 Y48.8231 
G01 X-40.5473 Y48.6819 
G01 X-40.6023 Y48.5490 
G01 X-40.6823 Y48.4294 
G01 X-40.7840 Y48.3277 
G01 X-40.9036 Y48.2477 
G01 X-41.0365 Y48.1927 
G01 X-41.1777 Y48.1646 
G01 X-42.6423 Y48.1646 
G01 X-42.7835 Y48.1927 
G01 X-42.9164 Y48.2477 
G01 X-43.0360 Y48.3277 
G01 X-43.1269 Y48.4186 
G01 X-43.2427 Y48.4186 
G01 X-43.3639 Y48.4511 
G01 X-43.4725 Y48.5138 
G01 X-44.0123 Y49.0536 
G01 X-49.5927 Y49.0536 
G01 X-49.7139 Y49.0861 
G01 X-49.8225 Y49.1488 
G01 X-52.1952 Y51.5215 
G01 X-52.2140 Y51.5027 
G01 X-52.3336 Y51.4227 
G01 X-52.4665 Y51.3677 
G01 X-52.6077 Y51.3396 
G01 X-54.0723 Y51.3396 
G01 X-54.2135 Y51.3677 
G01 X-54.3464 Y51.4227 
G01 X-54.4660 Y51.5027 
G01 X-54.5569 Y51.5936 
G01 X-55.3077 Y51.5936 
G01 X-55.4289 Y51.6261 
G01 X-55.5375 Y51.6888 
G01 X-56.7123 Y52.8636 
G01 X-64.5727 Y52.8636 
G01 X-65.6588 Y51.7775 
G01 X-65.7475 Y51.6888 
G01 X-65.8561 Y51.6261 
G01 X-65.9773 Y51.5936 
G01 X-71.1731 Y51.5936 
G01 X-71.2640 Y51.5027 
G01 X-71.3836 Y51.4227 
G01 X-71.5165 Y51.3677 
G01 X-71.6577 Y51.3396 
G01 X-73.1223 Y51.3396 
G01 X-73.2635 Y51.3677 
G01 X-73.3964 Y51.4227 
G01 X-73.5160 Y51.5027 
G01 X-73.6177 Y51.6044 
G01 X-73.6977 Y51.7240 
G01 X-73.7527 Y51.8569 
G01 X-73.7808 Y51.9981 
G01 X-73.7808 Y52.1419 
G01 X-73.7527 Y52.2831 
G01 X-73.6977 Y52.4160 
G01 X-73.6177 Y52.5356 
G01 X-73.5160 Y52.6373 
G01 X-73.3964 Y52.7173 
G01 X-73.2635 Y52.7723 
G01 X-73.1223 Y52.8004 
G01 X-71.6577 Y52.8004 
G01 X-71.5165 Y52.7723 
G01 X-71.3836 Y52.7173 
G01 X-71.2640 Y52.6373 
G01 X-71.1731 Y52.5464 
G01 X-66.2373 Y52.5464 
G01 X-65.0625 Y53.7212 
G01 X-64.9539 Y53.7839 
G01 X-64.8327 Y53.8164 
G01 X-56.4523 Y53.8164 
G01 X-56.3311 Y53.7839 
G01 X-56.2225 Y53.7212 
G01 X-56.1338 Y53.6325 
G01 X-55.0477 Y52.5464 
G01 X-54.5569 Y52.5464 
G01 X-54.4660 Y52.6373 
G01 X-54.3464 Y52.7173 
G01 X-54.2135 Y52.7723 
G01 X-54.0723 Y52.8004 
G01 X-52.6077 Y52.8004 
G01 X-52.4665 Y52.7723 
G01 X-52.3336 Y52.7173 
G01 X-52.2140 Y52.6373 
G01 X-52.1231 Y52.5464 
G01 X-52.0073 Y52.5464 
G01 X-51.8861 Y52.5139 
G01 X-51.7775 Y52.4512 
G01 X-51.6888 Y52.3625 
G01 X-49.3327 Y50.0064 
G01 X-43.7523 Y50.0064 
G01 X-43.6311 Y49.9739 
G01 X-43.5225 Y49.9112 
G01 X-43.4338 Y49.8225 
G01 X-43.0548 Y49.4435 
G01 X-43.0360 Y49.4623 
G01 X-42.9164 Y49.5423 
G01 X-42.7835 Y49.5973 
G01 X-42.6423 Y49.6254 
G01 X-41.1777 Y49.6254 
G01 X-41.0365 Y49.5973 
G01 X-40.9036 Y49.5423 
G01 X-40.7840 Y49.4623 
G00 Z1.0000 
G00 X-40.7840 Y46.9223 
G01 Z-0.1000 F254.00 
G01 X-40.6823 Y46.8206 F300.00 
G01 X-40.6023 Y46.7010 
G01 X-40.5473 Y46.5680 
G01 X-40.5192 Y46.4269 
G01 X-40.5192 Y46.2831 
G01 X-40.5473 Y46.1419 
G01 X-40.6023 Y46.0090 
G01 X-40.6823 Y45.8894 
G01 X-40.7840 Y45.7877 
G01 X-40.9036 Y45.7077 
G01 X-41.0365 Y45.6527 
G01 X-41.1777 Y45.6246 
G01 X-42.5068 Y45.6246 
G01 X-44.2033 Y45.0591 
G01 X-44.2444 Y45.0421 
G01 X-44.2691 Y45.0372 
G01 X-44.2929 Y45.0292 
G01 X-44.3370 Y45.0237 
G01 X-44.3806 Y45.0150 
G01 X-44.4057 Y45.0150 
G01 X-44.4307 Y45.0119 
G01 X-44.4750 Y45.0150 
G01 X-44.8600 Y45.0150 
G01 X-44.9877 Y44.9896 
G01 X-46.4523 Y44.9896 
G01 X-46.5934 Y45.0177 
G01 X-46.7264 Y45.0727 
G01 X-46.8460 Y45.1527 
G01 X-46.9477 Y45.2544 
G01 X-47.0277 Y45.3740 
G01 X-47.0827 Y45.5069 
G01 X-47.1108 Y45.6481 
G01 X-47.1108 Y45.7919 
G01 X-47.0827 Y45.9331 
G01 X-47.0277 Y46.0660 
G01 X-46.9477 Y46.1856 
G01 X-46.8460 Y46.2873 
G01 X-46.7264 Y46.3673 
G01 X-46.5934 Y46.4223 
G01 X-46.4523 Y46.4504 
G01 X-44.9877 Y46.4504 
G01 X-44.8600 Y46.4250 
G01 X-44.5644 Y46.4250 
G01 X-42.9998 Y46.9465 
G01 X-42.9164 Y47.0023 
G01 X-42.7835 Y47.0573 
G01 X-42.6423 Y47.0854 
G01 X-41.1777 Y47.0854 
G01 X-41.0365 Y47.0573 
G01 X-40.9036 Y47.0023 
G01 X-40.7840 Y46.9223 
G00 Z1.0000 
G00 X-40.7840 Y44.3823 
G01 Z-0.1000 F254.00 
G01 X-40.6823 Y44.2806 F300.00 
G01 X-40.6023 Y44.1610 
G01 X-40.5473 Y44.0281 
G01 X-40.5192 Y43.8869 
G01 X-40.5192 Y43.7431 
G01 X-40.5473 Y43.6019 
G01 X-40.6023 Y43.4690 
G01 X-40.6823 Y43.3494 
G01 X-40.7840 Y43.2477 
G01 X-40.9036 Y43.1677 
G01 X-41.0365 Y43.1127 
G01 X-41.1777 Y43.0846 
G01 X-42.5068 Y43.0846 
G01 X-44.2033 Y42.5191 
G01 X-44.2444 Y42.5021 
G01 X-44.2691 Y42.4972 
G01 X-44.2929 Y42.4892 
G01 X-44.3370 Y42.4837 
G01 X-44.3806 Y42.4750 
G01 X-44.4057 Y42.4750 
G01 X-44.4307 Y42.4719 
G01 X-44.4750 Y42.4750 
G01 X-44.8600 Y42.4750 
G01 X-44.9877 Y42.4496 
G01 X-46.4523 Y42.4496 
G01 X-46.5934 Y42.4777 
G01 X-46.7264 Y42.5327 
G01 X-46.8460 Y42.6127 
G01 X-46.9477 Y42.7144 
G01 X-47.0277 Y42.8340 
G01 X-47.0827 Y42.9669 
G01 X-47.1108 Y43.1081 
G01 X-47.1108 Y43.2519 
G01 X-47.0827 Y43.3931 
G01 X-47.0277 Y43.5260 
G01 X-46.9477 Y43.6456 
G01 X-46.8460 Y43.7473 
G01 X-46.7264 Y43.8273 
G01 X-46.5934 Y43.8823 
G01 X-46.4523 Y43.9104 
G01 X-44.9877 Y43.9104 
G01 X-44.8600 Y43.8850 
G01 X-44.5644 Y43.8850 
G01 X-42.9998 Y44.4065 
G01 X-42.9164 Y44.4623 
G01 X-42.7835 Y44.5173 
G01 X-42.6423 Y44.5454 
G01 X-41.1777 Y44.5454 
G01 X-41.0365 Y44.5173 
G01 X-40.9036 Y44.4623 
G01 X-40.7840 Y44.3823 
G00 Z1.0000 
G00 X-40.7840 Y41.8423 
G01 Z-0.1000 F254.00 
G01 X-40.6823 Y41.7406 F300.00 
G01 X-40.6023 Y41.6210 
G01 X-40.5473 Y41.4881 
G01 X-40.5192 Y41.3469 
G01 X-40.5192 Y41.2031 
G01 X-40.5473 Y41.0619 
G01 X-40.6023 Y40.9290 
G01 X-40.6823 Y40.8094 
G01 X-40.7840 Y40.7077 
G01 X-40.9036 Y40.6277 
G01 X-41.0365 Y40.5727 
G01 X-41.1777 Y40.5446 
G01 X-42.5068 Y40.5446 
G01 X-44.2033 Y39.9791 
G01 X-44.2444 Y39.9621 
G01 X-44.2691 Y39.9572 
G01 X-44.2929 Y39.9492 
G01 X-44.3370 Y39.9437 
G01 X-44.3806 Y39.9350 
G01 X-44.4057 Y39.9350 
G01 X-44.4307 Y39.9318 
G01 X-44.4750 Y39.9350 
G01 X-44.8600 Y39.9350 
G01 X-44.9877 Y39.9096 
G01 X-46.4523 Y39.9096 
G01 X-46.5934 Y39.9377 
G01 X-46.7264 Y39.9927 
G01 X-46.8460 Y40.0727 
G01 X-46.9477 Y40.1744 
G01 X-47.0277 Y40.2940 
G01 X-47.0827 Y40.4269 
G01 X-47.1108 Y40.5681 
G01 X-47.1108 Y40.7119 
G01 X-47.0827 Y40.8531 
G01 X-47.0277 Y40.9860 
G01 X-46.9477 Y41.1056 
G01 X-46.8460 Y41.2073 
G01 X-46.7264 Y41.2873 
G01 X-46.5934 Y41.3423 
G01 X-46.4523 Y41.3704 
G01 X-44.9877 Y41.3704 
G01 X-44.8600 Y41.3450 
G01 X-44.5644 Y41.3450 
G01 X-42.9998 Y41.8665 
G01 X-42.9164 Y41.9223 
G01 X-42.7835 Y41.9773 
G01 X-42.6423 Y42.0054 
G01 X-41.1777 Y42.0054 
G01 X-41.0365 Y41.9773 
G01 X-40.9036 Y41.9223 
G01 X-40.7840 Y41.8423 
G00 Z1.0000 
G00 X-40.7840 Y39.3023 
G01 Z-0.1000 F254.00 
G01 X-40.6823 Y39.2006 F300.00 
G01 X-40.6023 Y39.0810 
G01 X-40.5473 Y38.9481 
G01 X-40.5192 Y38.8069 
G01 X-40.5192 Y38.6631 
G01 X-40.5473 Y38.5219 
G01 X-40.6023 Y38.3890 
G01 X-40.6823 Y38.2694 
G01 X-40.7840 Y38.1677 
G01 X-40.9036 Y38.0877 
G01 X-41.0365 Y38.0327 
G01 X-41.1777 Y38.0046 
G01 X-42.5068 Y38.0046 
G01 X-44.2033 Y37.4391 
G01 X-44.2444 Y37.4221 
G01 X-44.2691 Y37.4172 
G01 X-44.2929 Y37.4092 
G01 X-44.3370 Y37.4037 
G01 X-44.3806 Y37.3950 
G01 X-44.4057 Y37.3950 
G01 X-44.4307 Y37.3918 
G01 X-44.4750 Y37.3950 
G01 X-44.8600 Y37.3950 
G01 X-44.9877 Y37.3696 
G01 X-46.4523 Y37.3696 
G01 X-46.5934 Y37.3977 
G01 X-46.7264 Y37.4527 
G01 X-46.8460 Y37.5327 
G01 X-46.9477 Y37.6344 
G01 X-47.0277 Y37.7540 
G01 X-47.0827 Y37.8869 
G01 X-47.1108 Y38.0281 
G01 X-47.1108 Y38.1719 
G01 X-47.0827 Y38.3130 
G01 X-47.0277 Y38.4460 
G01 X-46.9477 Y38.5656 
G01 X-46.8460 Y38.6673 
G01 X-46.7264 Y38.7473 
G01 X-46.5934 Y38.8023 
G01 X-46.4523 Y38.8304 
G01 X-44.9877 Y38.8304 
G01 X-44.8600 Y38.8050 
G01 X-44.5644 Y38.8050 
G01 X-42.9998 Y39.3265 
G01 X-42.9164 Y39.3823 
G01 X-42.7835 Y39.4373 
G01 X-42.6423 Y39.4654 
G01 X-41.1777 Y39.4654 
G01 X-41.0365 Y39.4373 
G01 X-40.9036 Y39.3823 
G01 X-40.7840 Y39.3023 
G00 Z1.0000 
G00 X-40.7840 Y36.7623 
G01 Z-0.1000 F254.00 
G01 X-40.6823 Y36.6606 F300.00 
G01 X-40.6023 Y36.5410 
G01 X-40.5473 Y36.4081 
G01 X-40.5192 Y36.2669 
G01 X-40.5192 Y36.1231 
G01 X-40.5473 Y35.9819 
G01 X-40.6023 Y35.8490 
G01 X-40.6823 Y35.7294 
G01 X-40.7840 Y35.6277 
G01 X-40.9036 Y35.5477 
G01 X-41.0365 Y35.4927 
G01 X-41.1777 Y35.4646 
G01 X-42.5598 Y35.4646 
G01 X-44.6815 Y34.9342 
G01 X-44.7136 Y34.9127 
G01 X-44.8465 Y34.8577 
G01 X-44.9877 Y34.8296 
G01 X-46.4523 Y34.8296 
G01 X-46.5934 Y34.8577 
G01 X-46.7264 Y34.9127 
G01 X-46.8460 Y34.9927 
G01 X-46.9477 Y35.0944 
G01 X-47.0277 Y35.2140 
G01 X-47.0827 Y35.3469 
G01 X-47.1108 Y35.4881 
G01 X-47.1108 Y35.6319 
G01 X-47.0827 Y35.7730 
G01 X-47.0277 Y35.9060 
G01 X-46.9477 Y36.0256 
G01 X-46.8460 Y36.1273 
G01 X-46.7264 Y36.2073 
G01 X-46.5934 Y36.2623 
G01 X-46.4523 Y36.2904 
G01 X-45.0702 Y36.2904 
G01 X-42.9485 Y36.8208 
G01 X-42.9164 Y36.8423 
G01 X-42.7835 Y36.8973 
G01 X-42.6423 Y36.9254 
G01 X-41.1777 Y36.9254 
G01 X-41.0365 Y36.8973 
G01 X-40.9036 Y36.8423 
G01 X-40.7840 Y36.7623 
G00 Z1.0000 
G00 X-40.7840 Y34.2223 
G01 Z-0.1000 F254.00 
G01 X-40.6823 Y34.1206 F300.00 
G01 X-40.6023 Y34.0010 
G01 X-40.5473 Y33.8680 
G01 X-40.5192 Y33.7269 
G01 X-40.5192 Y33.5831 
G01 X-40.5473 Y33.4419 
G01 X-40.6023 Y33.3090 
G01 X-40.6823 Y33.1894 
G01 X-40.7840 Y33.0877 
G01 X-40.9036 Y33.0077 
G01 X-41.0365 Y32.9527 
G01 X-41.1777 Y32.9246 
G01 X-42.5598 Y32.9246 
G01 X-44.6815 Y32.3942 
G01 X-44.7136 Y32.3727 
G01 X-44.8465 Y32.3177 
G01 X-44.9877 Y32.2896 
G01 X-46.4523 Y32.2896 
G01 X-46.5934 Y32.3177 
G01 X-46.7264 Y32.3727 
G01 X-46.8460 Y32.4527 
G01 X-46.9477 Y32.5544 
G01 X-47.0277 Y32.6740 
G01 X-47.0827 Y32.8069 
G01 X-47.1108 Y32.9481 
G01 X-47.1108 Y33.0919 
G01 X-47.0827 Y33.2330 
G01 X-47.0277 Y33.3660 
G01 X-46.9477 Y33.4856 
G01 X-46.8460 Y33.5873 
G01 X-46.7264 Y33.6673 
G01 X-46.5934 Y33.7223 
G01 X-46.4523 Y33.7504 
G01 X-45.0702 Y33.7504 
G01 X-42.9485 Y34.2808 
G01 X-42.9164 Y34.3023 
G01 X-42.7835 Y34.3573 
G01 X-42.6423 Y34.3854 
G01 X-41.1777 Y34.3854 
G01 X-41.0365 Y34.3573 
G01 X-40.9036 Y34.3023 
G01 X-40.7840 Y34.2223 
G00 Z1.0000 
G00 X-40.7840 Y29.1423 
G01 Z-0.1000 F254.00 
G01 X-40.6823 Y29.0406 F300.00 
G01 X-40.6023 Y28.9210 
G01 X-40.5473 Y28.7880 
G01 X-40.5192 Y28.6469 
G01 X-40.5192 Y28.5031 
G01 X-40.5473 Y28.3619 
G01 X-40.6023 Y28.2290 
G01 X-40.6823 Y28.1094 
G01 X-40.7840 Y28.0077 
G01 X-40.9036 Y27.9277 
G01 X-41.0365 Y27.8727 
G01 X-41.1777 Y27.8446 
G01 X-42.5068 Y27.8446 
G01 X-44.2033 Y27.2791 
G01 X-44.2444 Y27.2621 
G01 X-44.2691 Y27.2572 
G01 X-44.2929 Y27.2492 
G01 X-44.3370 Y27.2437 
G01 X-44.3806 Y27.2350 
G01 X-44.4057 Y27.2350 
G01 X-44.4307 Y27.2319 
G01 X-44.4750 Y27.2350 
G01 X-44.8600 Y27.2350 
G01 X-44.9877 Y27.2096 
G01 X-46.4523 Y27.2096 
G01 X-46.5934 Y27.2377 
G01 X-46.7264 Y27.2927 
G01 X-46.8460 Y27.3727 
G01 X-46.9477 Y27.4744 
G01 X-47.0277 Y27.5940 
G01 X-47.0827 Y27.7269 
G01 X-47.1108 Y27.8681 
G01 X-47.1108 Y28.0119 
G01 X-47.0827 Y28.1531 
G01 X-47.0277 Y28.2860 
G01 X-46.9477 Y28.4056 
G01 X-46.8460 Y28.5073 
G01 X-46.7264 Y28.5873 
G01 X-46.5934 Y28.6423 
G01 X-46.4523 Y28.6704 
G01 X-44.9877 Y28.6704 
G01 X-44.8600 Y28.6450 
G01 X-44.5644 Y28.6450 
G01 X-42.9998 Y29.1665 
G01 X-42.9164 Y29.2223 
G01 X-42.7835 Y29.2773 
G01 X-42.6423 Y29.3054 
G01 X-41.1777 Y29.3054 
G01 X-41.0365 Y29.2773 
G01 X-40.9036 Y29.2223 
G01 X-40.7840 Y29.1423 
G00 Z1.0000 
G00 X-42.7852 Y29.3686 
G01 Z-0.1000 F254.00 
G01 X-44.5711 Y28.7733 F300.00 
G01 X-44.5836 Y28.7661 
G01 X-44.6304 Y28.7535 
G01 X-44.6763 Y28.7382 
G01 X-44.6908 Y28.7373 
G01 X-44.7048 Y28.7336 
G01 X-44.7532 Y28.7336 
G01 X-44.8016 Y28.7307 
G01 X-44.8157 Y28.7336 
G01 X-51.8727 Y28.7336 
G01 X-52.8636 Y27.7427 
G01 X-52.8636 Y26.1304 
G01 X-52.6077 Y26.1304 
G01 X-52.4665 Y26.1023 
G01 X-52.3336 Y26.0473 
G01 X-52.2140 Y25.9673 
G01 X-52.1123 Y25.8656 
G01 X-52.0323 Y25.7460 
G01 X-51.9773 Y25.6131 
G01 X-51.9492 Y25.4719 
G01 X-51.9492 Y25.3281 
G01 X-51.9773 Y25.1869 
G01 X-52.0323 Y25.0540 
G01 X-52.1123 Y24.9344 
G01 X-52.2140 Y24.8327 
G01 X-52.3336 Y24.7527 
G01 X-52.4665 Y24.6977 
G01 X-52.6077 Y24.6696 
G01 X-54.0723 Y24.6696 
G01 X-54.2135 Y24.6977 
G01 X-54.3464 Y24.7527 
G01 X-54.4660 Y24.8327 
G01 X-54.5569 Y24.9236 
G01 X-56.3177 Y24.9236 
G01 X-57.4038 Y23.8375 
G01 X-57.4925 Y23.7488 
G01 X-57.6011 Y23.6861 
G01 X-57.7223 Y23.6536 
G01 X-66.1027 Y23.6536 
G01 X-66.2239 Y23.6861 
G01 X-66.3325 Y23.7488 
G01 X-67.5073 Y24.9236 
G01 X-71.1731 Y24.9236 
G01 X-71.2640 Y24.8327 
G01 X-71.3836 Y24.7527 
G01 X-71.5165 Y24.6977 
G01 X-71.6577 Y24.6696 
G01 X-73.1223 Y24.6696 
G01 X-73.2635 Y24.6977 
G01 X-73.3964 Y24.7527 
G01 X-73.5160 Y24.8327 
G01 X-73.6177 Y24.9344 
G01 X-73.6977 Y25.0540 
G01 X-73.7527 Y25.1869 
G01 X-73.7808 Y25.3281 
G01 X-73.7808 Y25.4719 
G01 X-73.7527 Y25.6131 
G01 X-73.6977 Y25.7460 
G01 X-73.6177 Y25.8656 
G01 X-73.5160 Y25.9673 
G01 X-73.3964 Y26.0473 
G01 X-73.2635 Y26.1023 
G01 X-73.1223 Y26.1304 
G01 X-71.6577 Y26.1304 
G01 X-71.5165 Y26.1023 
G01 X-71.3836 Y26.0473 
G01 X-71.2640 Y25.9673 
G01 X-71.1731 Y25.8764 
G01 X-67.2473 Y25.8764 
G01 X-67.1261 Y25.8439 
G01 X-67.0175 Y25.7812 
G01 X-66.9288 Y25.6925 
G01 X-65.8427 Y24.6064 
G01 X-57.9823 Y24.6064 
G01 X-56.8075 Y25.7812 
G01 X-56.6989 Y25.8439 
G01 X-56.5777 Y25.8764 
G01 X-54.5569 Y25.8764 
G01 X-54.4660 Y25.9673 
G01 X-54.3464 Y26.0473 
G01 X-54.2135 Y26.1023 
G01 X-54.0723 Y26.1304 
G01 X-53.8164 Y26.1304 
G01 X-53.8164 Y28.0027 
G01 X-53.7839 Y28.1239 
G01 X-53.7212 Y28.2325 
G01 X-53.6325 Y28.3212 
G01 X-52.3625 Y29.5912 
G01 X-52.2539 Y29.6539 
G01 X-52.1327 Y29.6864 
G01 X-44.8448 Y29.6864 
G01 X-43.0589 Y30.2817 
G01 X-43.0464 Y30.2889 
G01 X-42.9996 Y30.3015 
G01 X-42.9537 Y30.3168 
G01 X-42.9392 Y30.3177 
G01 X-42.9252 Y30.3214 
G01 X-42.8768 Y30.3214 
G01 X-42.8284 Y30.3243 
G01 X-42.8143 Y30.3214 
G01 X-38.0373 Y30.3214 
G01 X-37.9161 Y30.2889 
G01 X-37.8075 Y30.2262 
G01 X-37.7188 Y30.1375 
G01 X-36.4488 Y28.8675 
G01 X-36.3861 Y28.7589 
G01 X-36.3536 Y28.6377 
G01 X-36.3536 Y24.7023 
G01 X-36.3861 Y24.5811 
G01 X-36.4488 Y24.4725 
G01 X-36.5375 Y24.3838 
G01 X-37.8075 Y23.1138 
G01 X-37.9161 Y23.0511 
G01 X-38.0373 Y23.0186 
G01 X-40.6931 Y23.0186 
G01 X-40.7840 Y22.9277 
G01 X-40.9036 Y22.8477 
G01 X-41.0365 Y22.7927 
G01 X-41.1777 Y22.7646 
G01 X-42.6423 Y22.7646 
G01 X-42.7835 Y22.7927 
G01 X-42.9164 Y22.8477 
G01 X-43.0360 Y22.9277 
G01 X-43.1377 Y23.0294 
G01 X-43.2177 Y23.1490 
G01 X-43.2727 Y23.2819 
G01 X-43.3008 Y23.4231 
G01 X-43.3008 Y23.5669 
G01 X-43.2727 Y23.7081 
G01 X-43.2177 Y23.8410 
G01 X-43.1377 Y23.9606 
G01 X-43.0360 Y24.0623 
G01 X-42.9164 Y24.1423 
G01 X-42.7835 Y24.1973 
G01 X-42.6423 Y24.2254 
G01 X-41.1777 Y24.2254 
G01 X-41.0365 Y24.1973 
G01 X-40.9036 Y24.1423 
G01 X-40.7840 Y24.0623 
G01 X-40.6931 Y23.9714 
G01 X-38.2973 Y23.9714 
G01 X-37.3064 Y24.9623 
G01 X-37.3064 Y28.3777 
G01 X-38.2973 Y29.3686 
G01 X-42.7852 Y29.3686 
G00 Z1.0000 
G00 X-42.7835 Y26.7373 
G01 Z-0.1000 F254.00 
G01 X-42.6423 Y26.7654 F300.00 
G01 X-41.1777 Y26.7654 
G01 X-41.0365 Y26.7373 
G01 X-40.9036 Y26.6823 
G01 X-40.7840 Y26.6023 
G01 X-40.6823 Y26.5006 
G01 X-40.6023 Y26.3810 
G01 X-40.5473 Y26.2480 
G01 X-40.5192 Y26.1069 
G01 X-40.5192 Y25.9631 
G01 X-40.5473 Y25.8219 
G01 X-40.6023 Y25.6890 
G01 X-40.6823 Y25.5694 
G01 X-40.7840 Y25.4677 
G01 X-40.9036 Y25.3877 
G01 X-41.0365 Y25.3327 
G01 X-41.1777 Y25.3046 
G01 X-42.5068 Y25.3046 
G01 X-44.2033 Y24.7391 
G01 X-44.2444 Y24.7221 
G01 X-44.2691 Y24.7172 
G01 X-44.2929 Y24.7092 
G01 X-44.3370 Y24.7037 
G01 X-44.3806 Y24.6950 
G01 X-44.4057 Y24.6950 
G01 X-44.4307 Y24.6918 
G01 X-44.4750 Y24.6950 
G01 X-44.8600 Y24.6950 
G01 X-44.9877 Y24.6696 
G01 X-46.4523 Y24.6696 
G01 X-46.5934 Y24.6977 
G01 X-46.7264 Y24.7527 
G01 X-46.8460 Y24.8327 
G01 X-46.9477 Y24.9344 
G01 X-47.0277 Y25.0540 
G01 X-47.0827 Y25.1869 
G01 X-47.1108 Y25.3281 
G01 X-47.1108 Y25.4719 
G01 X-47.0827 Y25.6131 
G01 X-47.0277 Y25.7460 
G01 X-46.9477 Y25.8656 
G01 X-46.8460 Y25.9673 
G01 X-46.7264 Y26.0473 
G01 X-46.5934 Y26.1023 
G01 X-46.4523 Y26.1304 
G01 X-44.9877 Y26.1304 
G01 X-44.8600 Y26.1050 
G01 X-44.5644 Y26.1050 
G01 X-42.9998 Y26.6265 
G01 X-42.9164 Y26.6823 
G01 X-42.7835 Y26.7373 
G00 Z1.0000 
G00 X-44.1575 Y24.5112 
G01 Z-0.1000 F254.00 
G01 X-44.0688 Y24.4225 F300.00 
G01 X-43.4338 Y23.7875 
G01 X-43.3711 Y23.6789 
G01 X-43.3386 Y23.5577 
G01 X-43.3386 Y23.0573 
G01 X-41.9667 Y21.6854 
G01 X-41.1777 Y21.6854 
G01 X-41.0365 Y21.6573 
G01 X-40.9036 Y21.6023 
G01 X-40.7840 Y21.5223 
G01 X-40.6823 Y21.4206 
G01 X-40.6023 Y21.3010 
G01 X-40.5473 Y21.1681 
G01 X-40.5192 Y21.0269 
G01 X-40.5192 Y20.8831 
G01 X-40.5473 Y20.7419 
G01 X-40.6023 Y20.6090 
G01 X-40.6823 Y20.4894 
G01 X-40.7840 Y20.3877 
G01 X-40.9036 Y20.3077 
G01 X-41.0365 Y20.2527 
G01 X-41.1777 Y20.2246 
G01 X-42.6423 Y20.2246 
G01 X-42.7835 Y20.2527 
G01 X-42.9164 Y20.3077 
G01 X-43.0360 Y20.3877 
G01 X-43.1377 Y20.4894 
G01 X-43.2177 Y20.6090 
G01 X-43.2727 Y20.7419 
G01 X-43.3008 Y20.8831 
G01 X-43.3008 Y21.0269 
G01 X-43.2727 Y21.1681 
G01 X-43.2177 Y21.3010 
G01 X-43.1377 Y21.4206 
G01 X-43.0935 Y21.4648 
G01 X-44.1075 Y22.4788 
G01 X-44.1962 Y22.5675 
G01 X-44.2589 Y22.6761 
G01 X-44.2914 Y22.7973 
G01 X-44.2914 Y23.2977 
G01 X-44.6473 Y23.6536 
G01 X-55.6827 Y23.6536 
G01 X-56.7688 Y22.5675 
G01 X-56.8575 Y22.4788 
G01 X-56.9661 Y22.4161 
G01 X-57.0873 Y22.3836 
G01 X-59.7431 Y22.3836 
G01 X-59.8340 Y22.2927 
G01 X-59.9536 Y22.2127 
G01 X-60.0865 Y22.1577 
G01 X-60.2277 Y22.1296 
G01 X-61.6923 Y22.1296 
G01 X-61.8334 Y22.1577 
G01 X-61.9664 Y22.2127 
G01 X-62.0860 Y22.2927 
G01 X-62.1769 Y22.3836 
G01 X-66.4777 Y22.3836 
G01 X-67.5638 Y21.2975 
G01 X-67.6525 Y21.2088 
G01 X-67.7611 Y21.1461 
G01 X-67.8823 Y21.1136 
G01 X-75.6277 Y21.1136 
G01 X-75.7489 Y21.1461 
G01 X-75.8575 Y21.2088 
G01 X-77.0323 Y22.3836 
G01 X-78.7931 Y22.3836 
G01 X-78.8840 Y22.2927 
G01 X-79.0036 Y22.2127 
G01 X-79.1365 Y22.1577 
G01 X-79.2777 Y22.1296 
G01 X-80.7423 Y22.1296 
G01 X-80.8834 Y22.1577 
G01 X-81.0164 Y22.2127 
G01 X-81.1360 Y22.2927 
G01 X-81.2377 Y22.3944 
G01 X-81.3177 Y22.5140 
G01 X-81.3727 Y22.6469 
G01 X-81.4008 Y22.7881 
G01 X-81.4008 Y22.9319 
G01 X-81.3727 Y23.0730 
G01 X-81.3177 Y23.2060 
G01 X-81.2377 Y23.3256 
G01 X-81.1360 Y23.4273 
G01 X-81.0164 Y23.5073 
G01 X-80.8834 Y23.5623 
G01 X-80.7423 Y23.5904 
G01 X-79.2777 Y23.5904 
G01 X-79.1365 Y23.5623 
G01 X-79.0036 Y23.5073 
G01 X-78.8840 Y23.4273 
G01 X-78.7931 Y23.3364 
G01 X-76.7723 Y23.3364 
G01 X-76.6511 Y23.3039 
G01 X-76.5425 Y23.2412 
G01 X-76.4538 Y23.1525 
G01 X-75.3677 Y22.0664 
G01 X-68.1423 Y22.0664 
G01 X-66.9675 Y23.2412 
G01 X-66.8589 Y23.3039 
G01 X-66.7377 Y23.3364 
G01 X-62.1769 Y23.3364 
G01 X-62.0860 Y23.4273 
G01 X-61.9664 Y23.5073 
G01 X-61.8334 Y23.5623 
G01 X-61.6923 Y23.5904 
G01 X-60.2277 Y23.5904 
G01 X-60.0865 Y23.5623 
G01 X-59.9536 Y23.5073 
G01 X-59.8340 Y23.4273 
G01 X-59.7431 Y23.3364 
G01 X-57.3473 Y23.3364 
G01 X-56.1725 Y24.5112 
G01 X-56.0639 Y24.5739 
G01 X-55.9427 Y24.6064 
G01 X-44.3873 Y24.6064 
G01 X-44.2661 Y24.5739 
G01 X-44.1575 Y24.5112 
G00 Z1.0000 
G00 X-44.5940 Y23.4273 
G01 Z-0.1000 F254.00 
G01 X-44.4923 Y23.3256 F300.00 
G01 X-44.4123 Y23.2060 
G01 X-44.3573 Y23.0730 
G01 X-44.3292 Y22.9319 
G01 X-44.3292 Y22.7881 
G01 X-44.3573 Y22.6469 
G01 X-44.4123 Y22.5140 
G01 X-44.4923 Y22.3944 
G01 X-44.5940 Y22.2927 
G01 X-44.7136 Y22.2127 
G01 X-44.8465 Y22.1577 
G01 X-44.9877 Y22.1296 
G01 X-46.4523 Y22.1296 
G01 X-46.5934 Y22.1577 
G01 X-46.7264 Y22.2127 
G01 X-46.8460 Y22.2927 
G01 X-46.9369 Y22.3836 
G01 X-52.1231 Y22.3836 
G01 X-52.2140 Y22.2927 
G01 X-52.3336 Y22.2127 
G01 X-52.4665 Y22.1577 
G01 X-52.6077 Y22.1296 
G01 X-54.0723 Y22.1296 
G01 X-54.2135 Y22.1577 
G01 X-54.3464 Y22.2127 
G01 X-54.4660 Y22.2927 
G01 X-54.5677 Y22.3944 
G01 X-54.6477 Y22.5140 
G01 X-54.7027 Y22.6469 
G01 X-54.7308 Y22.7881 
G01 X-54.7308 Y22.9319 
G01 X-54.7027 Y23.0730 
G01 X-54.6477 Y23.2060 
G01 X-54.5677 Y23.3256 
G01 X-54.4660 Y23.4273 
G01 X-54.3464 Y23.5073 
G01 X-54.2135 Y23.5623 
G01 X-54.0723 Y23.5904 
G01 X-52.6077 Y23.5904 
G01 X-52.4665 Y23.5623 
G01 X-52.3336 Y23.5073 
G01 X-52.2140 Y23.4273 
G01 X-52.1231 Y23.3364 
G01 X-46.9369 Y23.3364 
G01 X-46.8460 Y23.4273 
G01 X-46.7264 Y23.5073 
G01 X-46.5934 Y23.5623 
G01 X-46.4523 Y23.5904 
G01 X-44.9877 Y23.5904 
G01 X-44.8465 Y23.5623 
G01 X-44.7136 Y23.5073 
G01 X-44.5940 Y23.4273 
G00 Z1.0000 
G00 X-44.5940 Y20.8873 
G01 Z-0.1000 F254.00 
G01 X-44.4923 Y20.7856 F300.00 
G01 X-44.4123 Y20.6660 
G01 X-44.3573 Y20.5330 
G01 X-44.3292 Y20.3919 
G01 X-44.3292 Y20.2481 
G01 X-44.3573 Y20.1069 
G01 X-44.4123 Y19.9740 
G01 X-44.4923 Y19.8544 
G01 X-44.5940 Y19.7527 
G01 X-44.7136 Y19.6727 
G01 X-44.8465 Y19.6177 
G01 X-44.9877 Y19.5896 
G01 X-46.4523 Y19.5896 
G01 X-46.5934 Y19.6177 
G01 X-46.7264 Y19.6727 
G01 X-46.8460 Y19.7527 
G01 X-46.9369 Y19.8436 
G01 X-48.3227 Y19.8436 
G01 X-48.4439 Y19.8761 
G01 X-48.5525 Y19.9388 
G01 X-48.6412 Y20.0275 
G01 X-49.7273 Y21.1136 
G01 X-58.2227 Y21.1136 
G01 X-59.3975 Y19.9388 
G01 X-59.5061 Y19.8761 
G01 X-59.6273 Y19.8436 
G01 X-59.7431 Y19.8436 
G01 X-59.8340 Y19.7527 
G01 X-59.9536 Y19.6727 
G01 X-60.0865 Y19.6177 
G01 X-60.2277 Y19.5896 
G01 X-61.6923 Y19.5896 
G01 X-61.8334 Y19.6177 
G01 X-61.9664 Y19.6727 
G01 X-62.0860 Y19.7527 
G01 X-62.1877 Y19.8544 
G01 X-62.2677 Y19.9740 
G01 X-62.3227 Y20.1069 
G01 X-62.3508 Y20.2481 
G01 X-62.3508 Y20.3919 
G01 X-62.3227 Y20.5330 
G01 X-62.2677 Y20.6660 
G01 X-62.1877 Y20.7856 
G01 X-62.0860 Y20.8873 
G01 X-61.9664 Y20.9673 
G01 X-61.8334 Y21.0223 
G01 X-61.6923 Y21.0504 
G01 X-60.2277 Y21.0504 
G01 X-60.0865 Y21.0223 
G01 X-59.9536 Y20.9673 
G01 X-59.8340 Y20.8873 
G01 X-59.8152 Y20.8685 
G01 X-58.7125 Y21.9712 
G01 X-58.6039 Y22.0339 
G01 X-58.4827 Y22.0664 
G01 X-49.4673 Y22.0664 
G01 X-49.3461 Y22.0339 
G01 X-49.2375 Y21.9712 
G01 X-48.0627 Y20.7964 
G01 X-46.9369 Y20.7964 
G01 X-46.8460 Y20.8873 
G01 X-46.7264 Y20.9673 
G01 X-46.5934 Y21.0223 
G01 X-46.4523 Y21.0504 
G01 X-44.9877 Y21.0504 
G01 X-44.8465 Y21.0223 
G01 X-44.7136 Y20.9673 
G01 X-44.5940 Y20.8873 
G00 Z1.0000 
G00 X-43.7523 Y19.5264 
G01 Z-0.1000 F254.00 
G01 X-43.6311 Y19.4939 F300.00 
G01 X-43.5225 Y19.4312 
G01 X-43.4338 Y19.3425 
G01 X-43.0548 Y18.9635 
G01 X-43.0360 Y18.9823 
G01 X-42.9164 Y19.0623 
G01 X-42.7835 Y19.1173 
G01 X-42.6423 Y19.1454 
G01 X-41.1777 Y19.1454 
G01 X-41.0365 Y19.1173 
G01 X-40.9036 Y19.0623 
G01 X-40.7840 Y18.9823 
G01 X-40.6823 Y18.8806 
G01 X-40.6023 Y18.7610 
G01 X-40.5473 Y18.6281 
G01 X-40.5192 Y18.4869 
G01 X-40.5192 Y18.3431 
G01 X-40.5473 Y18.2019 
G01 X-40.6023 Y18.0690 
G01 X-40.6823 Y17.9494 
G01 X-40.7840 Y17.8477 
G01 X-40.9036 Y17.7677 
G01 X-41.0365 Y17.7127 
G01 X-41.1777 Y17.6846 
G01 X-42.6423 Y17.6846 
G01 X-42.7835 Y17.7127 
G01 X-42.9164 Y17.7677 
G01 X-43.0360 Y17.8477 
G01 X-43.1269 Y17.9386 
G01 X-43.2427 Y17.9386 
G01 X-43.3639 Y17.9711 
G01 X-43.4725 Y18.0338 
G01 X-44.0123 Y18.5736 
G01 X-49.5927 Y18.5736 
G01 X-49.7139 Y18.6061 
G01 X-49.8225 Y18.6688 
G01 X-50.9973 Y19.8436 
G01 X-52.1231 Y19.8436 
G01 X-52.2140 Y19.7527 
G01 X-52.3336 Y19.6727 
G01 X-52.4665 Y19.6177 
G01 X-52.6077 Y19.5896 
G01 X-54.0723 Y19.5896 
G01 X-54.2135 Y19.6177 
G01 X-54.3464 Y19.6727 
G01 X-54.4660 Y19.7527 
G01 X-54.5569 Y19.8436 
G01 X-56.9527 Y19.8436 
G01 X-58.0388 Y18.7575 
G01 X-58.1275 Y18.6688 
G01 X-58.2361 Y18.6061 
G01 X-58.3573 Y18.5736 
G01 X-66.1027 Y18.5736 
G01 X-66.2239 Y18.6061 
G01 X-66.3325 Y18.6688 
G01 X-67.5073 Y19.8436 
G01 X-71.1731 Y19.8436 
G01 X-71.2640 Y19.7527 
G01 X-71.3836 Y19.6727 
G01 X-71.5165 Y19.6177 
G01 X-71.6577 Y19.5896 
G01 X-73.1223 Y19.5896 
G01 X-73.2635 Y19.6177 
G01 X-73.3964 Y19.6727 
G01 X-73.5160 Y19.7527 
G01 X-73.6177 Y19.8544 
G01 X-73.6977 Y19.9740 
G01 X-73.7527 Y20.1069 
G01 X-73.7808 Y20.2481 
G01 X-73.7808 Y20.3919 
G01 X-73.7527 Y20.5330 
G01 X-73.6977 Y20.6660 
G01 X-73.6177 Y20.7856 
G01 X-73.5160 Y20.8873 
G01 X-73.3964 Y20.9673 
G01 X-73.2635 Y21.0223 
G01 X-73.1223 Y21.0504 
G01 X-71.6577 Y21.0504 
G01 X-71.5165 Y21.0223 
G01 X-71.3836 Y20.9673 
G01 X-71.2640 Y20.8873 
G01 X-71.1731 Y20.7964 
G01 X-67.2473 Y20.7964 
G01 X-67.1261 Y20.7639 
G01 X-67.0175 Y20.7012 
G01 X-66.9288 Y20.6125 
G01 X-65.8427 Y19.5264 
G01 X-58.6173 Y19.5264 
G01 X-57.4425 Y20.7012 
G01 X-57.3339 Y20.7639 
G01 X-57.2127 Y20.7964 
G01 X-54.5569 Y20.7964 
G01 X-54.4660 Y20.8873 
G01 X-54.3464 Y20.9673 
G01 X-54.2135 Y21.0223 
G01 X-54.0723 Y21.0504 
G01 X-52.6077 Y21.0504 
G01 X-52.4665 Y21.0223 
G01 X-52.3336 Y20.9673 
G01 X-52.2140 Y20.8873 
G01 X-52.1231 Y20.7964 
G01 X-50.7373 Y20.7964 
G01 X-50.6161 Y20.7639 
G01 X-50.5075 Y20.7012 
G01 X-50.4188 Y20.6125 
G01 X-49.3327 Y19.5264 
G01 X-43.7523 Y19.5264 
G00 Z1.0000 
G00 X-44.5940 Y18.3473 
G01 Z-0.1000 F254.00 
G01 X-44.4923 Y18.2456 F300.00 
G01 X-44.4123 Y18.1260 
G01 X-44.3573 Y17.9931 
G01 X-44.3292 Y17.8519 
G01 X-44.3292 Y17.7081 
G01 X-44.3573 Y17.5669 
G01 X-44.4123 Y17.4340 
G01 X-44.4923 Y17.3144 
G01 X-44.5940 Y17.2127 
G01 X-44.7136 Y17.1327 
G01 X-44.8465 Y17.0777 
G01 X-44.9877 Y17.0496 
G01 X-46.4523 Y17.0496 
G01 X-46.5934 Y17.0777 
G01 X-46.7264 Y17.1327 
G01 X-46.8460 Y17.2127 
G01 X-46.9369 Y17.3036 
G01 X-52.1231 Y17.3036 
G01 X-52.2140 Y17.2127 
G01 X-52.3336 Y17.1327 
G01 X-52.4665 Y17.0777 
G01 X-52.6077 Y17.0496 
G01 X-54.0723 Y17.0496 
G01 X-54.2135 Y17.0777 
G01 X-54.3464 Y17.1327 
G01 X-54.4660 Y17.2127 
G01 X-54.5677 Y17.3144 
G01 X-54.6477 Y17.4340 
G01 X-54.7027 Y17.5669 
G01 X-54.7308 Y17.7081 
G01 X-54.7308 Y17.8519 
G01 X-54.7027 Y17.9931 
G01 X-54.6477 Y18.1260 
G01 X-54.5677 Y18.2456 
G01 X-54.4660 Y18.3473 
G01 X-54.3464 Y18.4273 
G01 X-54.2135 Y18.4823 
G01 X-54.0723 Y18.5104 
G01 X-52.6077 Y18.5104 
G01 X-52.4665 Y18.4823 
G01 X-52.3336 Y18.4273 
G01 X-52.2140 Y18.3473 
G01 X-52.1231 Y18.2564 
G01 X-46.9369 Y18.2564 
G01 X-46.8460 Y18.3473 
G01 X-46.7264 Y18.4273 
G01 X-46.5934 Y18.4823 
G01 X-46.4523 Y18.5104 
G01 X-44.9877 Y18.5104 
G01 X-44.8465 Y18.4823 
G01 X-44.7136 Y18.4273 
G01 X-44.5940 Y18.3473 
G00 Z1.0000 
G00 X-43.7523 Y16.9864 
G01 Z-0.1000 F254.00 
G01 X-43.6311 Y16.9539 F300.00 
G01 X-43.5225 Y16.8912 
G01 X-43.4338 Y16.8025 
G01 X-43.0548 Y16.4235 
G01 X-43.0360 Y16.4423 
G01 X-42.9164 Y16.5223 
G01 X-42.7835 Y16.5773 
G01 X-42.6423 Y16.6054 
G01 X-41.1777 Y16.6054 
G01 X-41.0365 Y16.5773 
G01 X-40.9036 Y16.5223 
G01 X-40.7840 Y16.4423 
G01 X-40.6823 Y16.3406 
G01 X-40.6023 Y16.2210 
G01 X-40.5473 Y16.0880 
G01 X-40.5192 Y15.9469 
G01 X-40.5192 Y15.8031 
G01 X-40.5473 Y15.6619 
G01 X-40.6023 Y15.5290 
G01 X-40.6823 Y15.4094 
G01 X-40.7840 Y15.3077 
G01 X-40.9036 Y15.2277 
G01 X-41.0365 Y15.1727 
G01 X-41.1777 Y15.1446 
G01 X-42.6423 Y15.1446 
G01 X-42.7835 Y15.1727 
G01 X-42.9164 Y15.2277 
G01 X-43.0360 Y15.3077 
G01 X-43.1269 Y15.3986 
G01 X-43.2427 Y15.3986 
G01 X-43.3639 Y15.4311 
G01 X-43.4725 Y15.4938 
G01 X-43.5612 Y15.5825 
G01 X-44.0123 Y16.0336 
G01 X-55.9427 Y16.0336 
G01 X-56.0639 Y16.0661 
G01 X-56.1725 Y16.1288 
G01 X-57.3473 Y17.3036 
G01 X-59.7431 Y17.3036 
G01 X-59.8340 Y17.2127 
G01 X-59.9536 Y17.1327 
G01 X-60.0865 Y17.0777 
G01 X-60.2277 Y17.0496 
G01 X-61.6923 Y17.0496 
G01 X-61.8334 Y17.0777 
G01 X-61.9664 Y17.1327 
G01 X-62.0860 Y17.2127 
G01 X-62.1769 Y17.3036 
G01 X-68.3827 Y17.3036 
G01 X-69.4688 Y16.2175 
G01 X-69.5575 Y16.1288 
G01 X-69.6661 Y16.0661 
G01 X-69.7873 Y16.0336 
G01 X-76.2627 Y16.0336 
G01 X-76.3839 Y16.0661 
G01 X-76.4925 Y16.1288 
G01 X-77.6673 Y17.3036 
G01 X-78.7931 Y17.3036 
G01 X-78.8840 Y17.2127 
G01 X-79.0036 Y17.1327 
G01 X-79.1365 Y17.0777 
G01 X-79.2777 Y17.0496 
G01 X-80.7423 Y17.0496 
G01 X-80.8834 Y17.0777 
G01 X-81.0164 Y17.1327 
G01 X-81.1360 Y17.2127 
G01 X-81.2377 Y17.3144 
G01 X-81.3177 Y17.4340 
G01 X-81.3727 Y17.5669 
G01 X-81.4008 Y17.7081 
G01 X-81.4008 Y17.8519 
G01 X-81.3727 Y17.9931 
G01 X-81.3177 Y18.1260 
G01 X-81.2377 Y18.2456 
G01 X-81.1360 Y18.3473 
G01 X-81.0164 Y18.4273 
G01 X-80.8834 Y18.4823 
G01 X-80.7423 Y18.5104 
G01 X-79.2777 Y18.5104 
G01 X-79.1365 Y18.4823 
G01 X-79.0036 Y18.4273 
G01 X-78.8840 Y18.3473 
G01 X-78.7931 Y18.2564 
G01 X-77.4073 Y18.2564 
G01 X-77.2861 Y18.2239 
G01 X-77.1775 Y18.1612 
G01 X-77.0888 Y18.0725 
G01 X-76.0027 Y16.9864 
G01 X-70.0473 Y16.9864 
G01 X-68.8725 Y18.1612 
G01 X-68.7639 Y18.2239 
G01 X-68.6427 Y18.2564 
G01 X-62.1769 Y18.2564 
G01 X-62.0860 Y18.3473 
G01 X-61.9664 Y18.4273 
G01 X-61.8334 Y18.4823 
G01 X-61.6923 Y18.5104 
G01 X-60.2277 Y18.5104 
G01 X-60.0865 Y18.4823 
G01 X-59.9536 Y18.4273 
G01 X-59.8340 Y18.3473 
G01 X-59.7431 Y18.2564 
G01 X-57.0873 Y18.2564 
G01 X-56.9661 Y18.2239 
G01 X-56.8575 Y18.1612 
G01 X-56.7688 Y18.0725 
G01 X-55.6827 Y16.9864 
G01 X-43.7523 Y16.9864 
G00 Z1.0000 
G00 X-44.5940 Y15.8073 
G01 Z-0.1000 F254.00 
G01 X-44.4923 Y15.7056 F300.00 
G01 X-44.4123 Y15.5860 
G01 X-44.3573 Y15.4530 
G01 X-44.3292 Y15.3119 
G01 X-44.3292 Y15.1681 
G01 X-44.3573 Y15.0269 
G01 X-44.4123 Y14.8940 
G01 X-44.4923 Y14.7744 
G01 X-44.5940 Y14.6727 
G01 X-44.7136 Y14.5927 
G01 X-44.8465 Y14.5377 
G01 X-44.9877 Y14.5096 
G01 X-45.2436 Y14.5096 
G01 X-45.2436 Y13.7915 
G01 X-45.1411 Y13.7229 
G01 X-45.0146 Y13.5964 
G01 X-44.9152 Y13.4477 
G01 X-44.8467 Y13.2824 
G01 X-44.8118 Y13.1069 
